; generated by SuperSlicer 2.5.59.13 on 2024-08-19 at 10:36:41 UTC

; 

; external perimeters extrusion width = 0.56mm
; perimeters extrusion width = 0.56mm
; infill extrusion width = 0.56mm
; solid infill extrusion width = 0.56mm
; top infill extrusion width = 0.56mm
; first layer extrusion width = 0.56mm

; object:{"name":"benchy","id":"benchy.stl id:0 copy 0","object_center":[100.000000,100.000000,0.000000],"boundingbox_center":[100.000000,100.000000,24.000000],"boundingbox_size":[60.000999,31.004000,48.000000]}
; Total objects to print: 1
M486 T1
; plater:{"center":[100.000000,100.000000,0.000000],"boundingbox_center":[100.000000,100.000000,24.000000],"boundingbox_size":[60.000999,31.004000,48.000000]}

M107
M104 S200 ; set temperature
;TYPE:Custom
G28 ; home all axes
G1 Z5 F5000 ; lift nozzle

M107
G21 ; set units to millimeters
G90 ; use absolute coordinates
M82 ; use absolute distances for extrusion
G92 E0
; Filament gcode
M109 S200 ; set temperature and wait for it to be reached
;LAYER_CHANGE
;-----------------------------------------------
; VacuumPnP TOOL G CODE INJECTION START
G0 Z5.00 ; Move to zHop position for clearance
G0 X10.00 Y20.00
G0 Z30.00 ; Move to startPosition
M98 P1 ; Execute suction state
G0 X40.00 Y50.00
G0 Z60.00 ; Move to endPosition
G0 Z5.00 ; Move to zHop position for clearance
; VacuumPnP TOOL G CODE INJECTION END
;-----------------------------------------------
;Z:0.3
;HEIGHT:0.3
G1 Z0.3 F7800
G1 E-2.000000 F2400
G1 X70.916 Y88.793 F7800
G1 E0.000000 F2400
;TYPE:Skirt
;WIDTH:0.52
M107
G1 F1800
G1 X69.889 Y89.761 E0.08022
G1 X69.224 Y90.623 E0.14207
G1 X68.654 Y91.634 E0.208
G1 X68.248 Y92.677 E0.27162
G1 X68.011 Y93.67 E0.32967
G1 X67.88 Y94.998 E0.40549
G1 X67.905 Y105.536 E1.00433
G1 X68.045 Y106.53 E1.06139
G1 X68.326 Y107.559 E1.12199
G1 X68.751 Y108.565 E1.18406
G1 X69.549 Y109.822 E1.26866
G1 X70.462 Y110.823 E1.34566
G1 X71.155 Y111.389 E1.39648
G1 X72.06 Y111.956 E1.45719
G1 X73.253 Y112.474 E1.53111
G1 X74.699 Y112.815 E1.6155
G1 X99.922 Y114.36 E3.05156
G1 X101.291 Y114.325 E3.12938
G1 X103.475 Y114.083 E3.25426
G1 X105.236 Y113.716 E3.35648
G1 X106.576 Y113.331 E3.43574
G1 X107.899 Y112.854 E3.51562
G1 X110.026 Y111.866 E3.6489
G1 X111.763 Y110.831 E3.76381
G1 X113.314 Y109.698 E3.87297
G1 X115.031 Y108.157 E4.00409
G1 X116.721 Y106.251 E4.14881
G1 X118.108 Y104.254 E4.28701
G1 X118.948 Y102.564 E4.39426
G1 X119.357 Y100.806 E4.49682
G1 X119.341 Y99.056 E4.59627
G1 X118.974 Y97.5 E4.68709
G1 X118.366 Y96.186 E4.76941
G1 X116.833 Y93.895 E4.92604
G1 X115.05 Y91.863 E5.07968
G1 X113.246 Y90.25 E5.21716
G1 X110.87 Y88.61 E5.38126
G1 X108.359 Y87.336 E5.54126
G1 X105.664 Y86.397 E5.70343
G1 X102.933 Y85.835 E5.8619
G1 X100.28 Y85.642 E6.01304
G1 X98.781 Y85.675 E6.09826
G1 X75.372 Y87.106 E7.43101
G1 X74.399 Y87.232 E7.48677
G1 X73.165 Y87.561 E7.55934
G1 X71.831 Y88.172 E7.64269
G1 X70.966 Y88.759 E7.70215
M107
G92 E0
G1 E-2.000000 F2400
; printing object benchy.stl id:0 copy 0
M486 S0
G1 X78.962 Y98.679 F7800
G1 E0.000000 F2400
;TYPE:External perimeter
;WIDTH:0.56
M107
G1 F1800
G1 X79.195 Y98.608 E0.01503
G1 X79.387 Y98.461 E0.03002
G1 X79.502 Y98.311 E0.04171
G1 X79.596 Y98.098 E0.05607
G1 X79.624 Y97.931 E0.06657
G1 X79.609 Y97.726 E0.07927
G1 X79.486 Y97.439 E0.09854
G1 X79.238 Y97.158 E0.12169
G1 X78.965 Y96.949 E0.14294
G1 X78.678 Y96.793 E0.16316
G1 X78.347 Y96.678 E0.18482
G1 X77.957 Y96.609 E0.20933
G1 X77.334 Y96.602 E0.24784
G1 X77.026 Y96.642 E0.26706
G1 X76.701 Y96.722 E0.28772
G1 X76.249 Y96.913 E0.31803
G1 X75.936 Y97.115 E0.34106
G1 X75.738 Y97.279 E0.35694
G1 X75.486 Y97.547 E0.37971
G1 X75.33 Y97.758 E0.39592
G1 X75.137 Y98.1 E0.42019
G1 X74.942 Y98.629 E0.45507
G1 X74.82 Y99.275 E0.49571
G1 X74.781 Y99.991 E0.54002
G1 X74.824 Y100.689 E0.58327
G1 X74.874 Y101.007 E0.60312
G1 X74.978 Y101.425 E0.62975
G1 X75.171 Y101.903 E0.66164
G1 X75.368 Y102.229 E0.6852
G1 X75.525 Y102.43 E0.70093
G1 X75.699 Y102.614 E0.71657
G1 X75.987 Y102.853 E0.73975
G1 X76.409 Y103.095 E0.76979
G1 X76.651 Y103.191 E0.78592
G1 X76.933 Y103.269 E0.80397
G1 X77.201 Y103.314 E0.82077
G1 X77.63 Y103.336 E0.84735
G1 X78.032 Y103.31 E0.87221
G1 X78.383 Y103.242 E0.89432
G1 X78.699 Y103.129 E0.91509
G1 X78.898 Y103.025 E0.92895
G1 X79.148 Y102.846 E0.948
G1 X79.366 Y102.619 E0.96744
G1 X79.573 Y102.281 E0.99196
G1 X79.661 Y101.976 E1.01157
G1 X79.562 Y101.659 E1.03208
G1 X79.338 Y101.425 E1.0521
G1 X79.03 Y101.286 E1.073
G1 X78.774 Y101.256 E1.08891
G1 X78.544 Y101.295 E1.10335
G1 X78.397 Y101.362 E1.11331
G1 X78.277 Y101.452 E1.12261
G1 X78.115 Y101.642 E1.13809
G1 X78.023 Y101.699 E1.14477
G1 X77.725 Y101.775 E1.16378
G1 X77.431 Y101.776 E1.18195
G1 X77.218 Y101.732 E1.19539
G1 X76.957 Y101.618 E1.21298
G1 X76.756 Y101.461 E1.22875
G1 X76.594 Y101.247 E1.24534
G1 X76.489 Y101.018 E1.26087
G1 X76.409 Y100.73 E1.27934
G1 X76.361 Y100.392 E1.3005
G1 X76.342 Y99.922 E1.32955
G1 X76.365 Y99.492 E1.35619
G1 X76.417 Y99.165 E1.37666
G1 X76.495 Y98.899 E1.39379
G1 X76.594 Y98.687 E1.40823
G1 X76.755 Y98.469 E1.42502
G1 X76.9 Y98.346 E1.43672
G1 X77.079 Y98.246 E1.44943
G1 X77.276 Y98.18 E1.46229
G1 X77.547 Y98.149 E1.4791
G1 X77.794 Y98.199 E1.49467
G1 X78.483 Y98.589 E1.54364
G1 X78.728 Y98.667 E1.5595
G1 X78.902 Y98.676 E1.5703
M107
;WIPE_START
G1 X79.103 Y98.845 F7800
;WIPE_END
G1 X80.585 Y98.284
M107
G1 F1800
G1 X80.816 Y98.326 E1.58484
G1 X81.545 Y98.25 E1.63013
G1 X81.788 Y98.262 E1.64518
G1 X81.936 Y98.327 E1.65517
G1 X82.016 Y98.431 E1.66327
G1 X82.037 Y98.584 E1.67282
G1 X82.002 Y99.143 E1.70748
G1 X82.019 Y101.926 E1.87952
G1 X81.98 Y102.581 E1.9201
G1 X82.028 Y102.793 E1.93351
G1 X82.12 Y102.948 E1.94464
G1 X82.354 Y103.119 E1.96254
G1 X82.691 Y103.194 E1.98392
G1 X83.008 Y103.152 E2.00368
G1 X83.218 Y103.037 E2.01845
G1 X83.38 Y102.854 E2.03356
G1 X83.475 Y102.634 E2.04842
G1 X83.523 Y102.37 E2.06496
G1 X83.506 Y98.454 E2.30707
G1 X83.519 Y98.286 E2.31747
G1 X83.567 Y98.271 E2.32061
G1 X84.488 Y98.285 E2.37752
G1 X84.826 Y98.25 E2.39856
G1 X85.057 Y98.178 E2.4135
G1 X85.28 Y98.008 E2.43081
G1 X85.395 Y97.792 E2.44592
G1 X85.44 Y97.503 E2.46398
G1 X85.389 Y97.188 E2.48372
G1 X85.28 Y96.99 E2.49769
G1 X85.153 Y96.876 E2.50823
G1 X84.966 Y96.793 E2.52089
G1 X84.799 Y96.765 E2.53135
G1 X81.486 Y96.776 E2.73613
G1 X80.83 Y96.732 E2.77682
G1 X80.604 Y96.773 E2.791
G1 X80.421 Y96.87 E2.80382
G1 X80.256 Y97.045 E2.81865
G1 X80.151 Y97.27 E2.83403
G1 X80.113 Y97.52 E2.84966
G1 X80.146 Y97.772 E2.86537
G1 X80.239 Y97.995 E2.88032
G1 X80.389 Y98.174 E2.89475
G1 X80.532 Y98.255 E2.90493
M107
;WIPE_START
G1 X80.635 Y98.497 F7800
;WIPE_END
G92 E0
G1 E-2.000000 F2400
G1 X86.609 Y98.505 F7800
G1 E0.000000 F2400
M107
G1 F1800
G1 X86.823 Y98.485 E0.01328
G1 X86.983 Y98.422 E0.02391
G1 X87.392 Y98.157 E0.05401
G1 X87.483 Y98.112 E0.06031
G1 X87.687 Y98.06 E0.07332
G1 X87.796 Y98.063 E0.08009
G1 X87.878 Y98.088 E0.08537
G1 X87.998 Y98.201 E0.09559
G1 X88.036 Y98.29 E0.10154
G1 X88.049 Y98.431 E0.1103
G1 X88.028 Y98.518 E0.11583
G1 X87.972 Y98.618 E0.12293
G1 X87.882 Y98.712 E0.13097
G1 X87.772 Y98.783 E0.13901
G1 X87.636 Y98.829 E0.14791
G1 X87.176 Y98.907 E0.17673
G1 X86.912 Y99.037 E0.19495
G1 X86.749 Y99.225 E0.21031
G1 X86.666 Y99.393 E0.2219
G1 X86.605 Y99.638 E0.23753
G1 X86.609 Y99.881 E0.25255
G1 X86.689 Y100.108 E0.26739
G1 X86.891 Y100.3 E0.28465
G1 X87.112 Y100.384 E0.29922
G1 X87.608 Y100.475 E0.3304
G1 X87.732 Y100.516 E0.3385
G1 X87.909 Y100.605 E0.35072
G1 X88.064 Y100.728 E0.36299
G1 X88.192 Y100.875 E0.37501
G1 X88.304 Y101.085 E0.38971
G1 X88.345 Y101.272 E0.40157
G1 X88.326 Y101.463 E0.41346
G1 X88.277 Y101.588 E0.42171
G1 X88.202 Y101.698 E0.42995
G1 X88.103 Y101.784 E0.43807
G1 X87.926 Y101.87 E0.45019
G1 X87.827 Y101.887 E0.45641
G1 X87.712 Y101.87 E0.4636
G1 X87.623 Y101.824 E0.46985
G1 X87.189 Y101.512 E0.50287
G1 X86.97 Y101.433 E0.51724
G1 X86.705 Y101.402 E0.53375
G1 X86.38 Y101.46 E0.55415
G1 X86.119 Y101.623 E0.57317
G1 X85.956 Y101.895 E0.59276
G1 X85.92 Y102.227 E0.61342
G1 X85.978 Y102.496 E0.63045
G1 X86.13 Y102.775 E0.65006
G1 X86.33 Y102.97 E0.66733
G1 X86.565 Y103.113 E0.68434
G1 X86.864 Y103.226 E0.70407
G1 X87.191 Y103.299 E0.72478
G1 X87.444 Y103.329 E0.74057
G1 X87.862 Y103.335 E0.7664
G1 X88.246 Y103.297 E0.79028
G1 X88.677 Y103.18 E0.81789
G1 X89.075 Y102.969 E0.84572
G1 X89.415 Y102.678 E0.87337
G1 X89.688 Y102.307 E0.90184
G1 X89.847 Y101.979 E0.92437
G1 X89.968 Y101.544 E0.95225
G1 X89.99 Y101.124 E0.9783
G1 X89.941 Y100.794 E0.99889
G1 X89.82 Y100.355 E1.02704
G1 X89.705 Y100.036 E1.04798
G1 X89.578 Y99.817 E1.06367
G1 X89.411 Y99.644 E1.07855
G1 X89.263 Y99.546 E1.08948
G1 X89.156 Y99.501 E1.09669
G1 X89.295 Y99.422 E1.10656
G1 X89.483 Y99.251 E1.1223
G1 X89.619 Y99.031 E1.13829
G1 X89.712 Y98.688 E1.16021
G1 X89.749 Y98.186 E1.19136
G1 X89.73 Y97.876 E1.21052
G1 X89.628 Y97.527 E1.23304
G1 X89.472 Y97.271 E1.25155
G1 X89.268 Y97.052 E1.27007
G1 X89.1 Y96.921 E1.28324
G1 X88.829 Y96.775 E1.30226
G1 X88.614 Y96.699 E1.31633
G1 X88.28 Y96.627 E1.33745
G1 X87.991 Y96.596 E1.35544
G1 X87.568 Y96.595 E1.38159
G1 X87.251 Y96.629 E1.40126
G1 X86.913 Y96.706 E1.42269
G1 X86.606 Y96.826 E1.44311
G1 X86.412 Y96.934 E1.4568
G1 X86.195 Y97.098 E1.47363
G1 X86.03 Y97.292 E1.48938
G1 X85.924 Y97.564 E1.50742
G1 X85.932 Y97.81 E1.52263
G1 X86.022 Y98.053 E1.53863
G1 X86.174 Y98.265 E1.55476
G1 X86.39 Y98.434 E1.5717
G1 X86.552 Y98.487 E1.58225
M107
;WIPE_START
G1 X86.709 Y98.697 F7800
;WIPE_END
G92 E0
G1 E-2.000000 F2400
G1 X90.895 Y97.114 F7800
G1 E0.000000 F2400
M107
G1 F1800
G1 X90.811 Y97.417 E0.01944
G1 X90.854 Y98.052 E0.05879
G1 X90.85 Y101.664 E0.28203
G1 X90.832 Y102.269 E0.31947
G1 X90.857 Y102.553 E0.33705
G1 X90.928 Y102.794 E0.35259
G1 X91.048 Y102.989 E0.36675
G1 X91.21 Y103.121 E0.37969
G1 X91.366 Y103.18 E0.39001
G1 X91.588 Y103.198 E0.40376
G1 X92.035 Y103.156 E0.43152
G1 X92.851 Y103.164 E0.48197
G1 X93.379 Y103.137 E0.51463
G1 X93.926 Y103.049 E0.54888
G1 X94.364 Y102.901 E0.57746
G1 X94.675 Y102.726 E0.59952
G1 X94.872 Y102.577 E0.61478
G1 X95.06 Y102.404 E0.63059
G1 X95.299 Y102.121 E0.65347
G1 X95.502 Y101.792 E0.67738
G1 X95.621 Y101.536 E0.69482
G1 X95.793 Y100.984 E0.73057
G1 X95.887 Y100.341 E0.77076
G1 X95.901 Y99.98 E0.79307
G1 X95.881 Y99.467 E0.82483
G1 X95.785 Y98.858 E0.86291
G1 X95.707 Y98.582 E0.88065
G1 X95.56 Y98.208 E0.90547
G1 X95.305 Y97.774 E0.9366
G1 X95.027 Y97.449 E0.96306
G1 X94.674 Y97.167 E0.99097
G1 X94.283 Y96.976 E1.01786
G1 X93.802 Y96.851 E1.04859
G1 X93.342 Y96.79 E1.07729
G1 X91.725 Y96.754 E1.17726
G1 X91.414 Y96.786 E1.19658
G1 X91.111 Y96.903 E1.21667
G1 X90.938 Y97.072 E1.23162
M107
;WIPE_START
G1 X90.683 Y97.131 F7800
;WIPE_END
G92 E0
G1 E-2.000000 F2400
G1 X95.795 Y101.531 F7800
G1 E0.000000 F2400
M107
G1 F1799.9999
G1 X95.659 Y101.721 E0.01443
G1 X95.534 Y102.022 E0.0346
G1 X95.492 Y102.25 E0.04896
G1 X95.492 Y102.479 E0.06307
G1 X95.532 Y102.701 E0.07706
G1 X95.61 Y102.913 E0.09101
G1 X95.727 Y103.112 E0.10528
G1 X95.926 Y103.33 E0.12351
G1 X96.141 Y103.482 E0.13981
G1 X96.352 Y103.576 E0.15405
G1 X96.57 Y103.63 E0.16797
G1 X96.796 Y103.645 E0.18197
G1 X97.021 Y103.621 E0.19592
G1 X97.245 Y103.555 E0.21036
G1 X97.53 Y103.395 E0.23057
G1 X97.704 Y103.24 E0.24498
G1 X97.847 Y103.056 E0.25942
G1 X97.987 Y102.761 E0.27958
G1 X98.038 Y102.535 E0.29392
G1 X98.049 Y102.301 E0.30836
G1 X97.99 Y101.98 E0.32857
G1 X97.9 Y101.766 E0.34293
G1 X97.777 Y101.575 E0.35695
G1 X97.622 Y101.409 E0.37099
G1 X97.441 Y101.275 E0.38488
G1 X97.239 Y101.173 E0.3989
G1 X97.015 Y101.107 E0.41337
G1 X96.689 Y101.086 E0.43354
G1 X96.461 Y101.121 E0.44783
G1 X96.239 Y101.196 E0.46229
G1 X95.961 Y101.369 E0.48256
G1 X95.838 Y101.489 E0.49314
M107
;WIPE_START
G1 X95.574 Y101.496 F7800
;WIPE_END
G92 E0
G1 E-2.000000 F2400
G1 X98.396 Y102.992 F7800
G1 E0.000000 F2400
M107
G1 F1800
G1 X98.559 Y103.185 E0.01559
G1 X98.835 Y103.336 E0.03502
G1 X99.142 Y103.366 E0.05407
G1 X99.414 Y103.241 E0.07263
G1 X99.592 Y103.065 E0.08809
G1 X99.803 Y102.766 E0.1107
G1 X99.998 Y102.433 E0.13455
G1 X100.111 Y102.185 E0.15141
G1 X100.506 Y102.896 E0.20172
G1 X100.703 Y103.169 E0.22246
G1 X100.888 Y103.308 E0.23679
G1 X101.116 Y103.377 E0.25154
G1 X101.366 Y103.371 E0.267
G1 X101.605 Y103.293 E0.28253
G1 X101.833 Y103.11 E0.30061
G1 X101.945 Y102.884 E0.31618
G1 X101.977 Y102.63 E0.33206
G1 X101.937 Y102.36 E0.34893
G1 X101.796 Y102.046 E0.37017
G1 X101.115 Y100.912 E0.45197
G1 X101.073 Y100.802 E0.45925
G1 X101.065 Y100.702 E0.46545
G1 X101.085 Y100.588 E0.47256
G1 X101.153 Y100.427 E0.48338
G1 X101.843 Y99.26 E0.5672
G1 X101.926 Y98.932 E0.58807
G1 X101.854 Y98.628 E0.6074
G1 X101.683 Y98.393 E0.6254
G1 X101.422 Y98.226 E0.64456
G1 X101.125 Y98.201 E0.66297
G1 X100.85 Y98.32 E0.68149
G1 X100.65 Y98.485 E0.6975
G1 X100.458 Y98.718 E0.71614
G1 X100.304 Y98.995 E0.73577
G1 X100.186 Y99.263 E0.75387
G1 X99.98 Y98.863 E0.78169
G1 X99.747 Y98.525 E0.80705
G1 X99.572 Y98.356 E0.82211
G1 X99.43 Y98.266 E0.83248
G1 X99.227 Y98.203 E0.84561
G1 X99.049 Y98.202 E0.85662
G1 X98.749 Y98.295 E0.87606
G1 X98.507 Y98.497 E0.89554
G1 X98.389 Y98.77 E0.91391
G1 X98.406 Y99.074 E0.93278
G1 X98.494 Y99.335 E0.9498
G1 X99.058 Y100.352 E1.02166
G1 X99.313 Y100.758 E1.05133
G1 X99.287 Y100.833 E1.05625
G1 X98.964 Y101.289 E1.09079
G1 X98.432 Y102.222 E1.15714
G1 X98.363 Y102.397 E1.16882
G1 X98.319 Y102.619 E1.18279
G1 X98.324 Y102.785 E1.19304
G1 X98.377 Y102.936 E1.20293
M107
;WIPE_START
G1 X98.299 Y103.186 F7800
;WIPE_END
G92 E0
G1 E-2.000000 F2400
G1 X102.173 Y104.59 F7800
G1 E0.000000 F2400
M107
G1 F1800
G1 X102.048 Y104.773 E0.01365
G1 X102.004 Y104.992 E0.02748
G1 X102.013 Y105.157 E0.03769
G1 X102.055 Y105.328 E0.0486
G1 X102.165 Y105.56 E0.06444
G1 X102.37 Y105.772 E0.08269
G1 X102.537 Y105.855 E0.09417
G1 X102.765 Y105.901 E0.10856
G1 X103.024 Y105.89 E0.12461
G1 X103.328 Y105.821 E0.14389
G1 X103.557 Y105.742 E0.15882
G1 X103.837 Y105.603 E0.17817
G1 X104.129 Y105.368 E0.20138
G1 X104.312 Y105.133 E0.21976
G1 X104.433 Y104.93 E0.23438
G1 X104.706 Y104.329 E0.27519
G1 X105.088 Y103.344 E0.34049
G1 X106.04 Y100.683 E0.51518
G1 X106.253 Y100.037 E0.55722
G1 X106.541 Y99.382 E0.60148
G1 X106.613 Y99.081 E0.62058
G1 X106.595 Y98.857 E0.6345
G1 X106.503 Y98.622 E0.65011
G1 X106.357 Y98.426 E0.66518
G1 X106.169 Y98.28 E0.67992
G1 X105.957 Y98.203 E0.6939
G1 X105.738 Y98.216 E0.70745
G1 X105.537 Y98.313 E0.72124
G1 X105.363 Y98.478 E0.73607
G1 X105.204 Y98.712 E0.75353
G1 X105.064 Y99.009 E0.77386
G1 X104.575 Y100.463 E0.86866
G1 X104.54 Y100.464 E0.87084
G1 X104.156 Y99.482 E0.93599
G1 X103.97 Y98.834 E0.9777
G1 X103.871 Y98.612 E0.99273
G1 X103.723 Y98.43 E1.00719
G1 X103.515 Y98.294 E1.02258
G1 X103.3 Y98.222 E1.03661
G1 X103.045 Y98.2 E1.05241
G1 X102.758 Y98.274 E1.07072
G1 X102.585 Y98.42 E1.08474
G1 X102.494 Y98.574 E1.09583
G1 X102.434 Y98.865 E1.11419
G1 X102.468 Y99.241 E1.13755
G1 X102.562 Y99.57 E1.15865
G1 X102.863 Y100.302 E1.20759
G1 X103.457 Y101.907 E1.31338
G1 X103.729 Y102.529 E1.35537
G1 X103.768 Y102.725 E1.3677
G1 X103.713 Y102.931 E1.38086
G1 X103.527 Y103.318 E1.40745
G1 X103.31 Y103.887 E1.44509
G1 X103.179 Y104.105 E1.46079
G1 X102.991 Y104.265 E1.47607
G1 X102.843 Y104.33 E1.48607
G1 X102.36 Y104.469 E1.51712
G1 X102.224 Y104.558 E1.52716
M107
;WIPE_START
G1 X101.962 Y104.546 F7800
;WIPE_END
G92 E0
G1 E-2.000000 F2400
G1 X107.269 Y103.279 F7800
G1 E0.000000 F2400
M107
G1 F1800
G1 X107.479 Y103.361 E0.01394
G1 X107.65 Y103.383 E0.0246
G1 X108.232 Y103.354 E0.06062
G1 X109.963 Y103.359 E0.16763
G1 X110.243 Y103.329 E0.18502
G1 X110.459 Y103.255 E0.19914
G1 X110.632 Y103.125 E0.21252
G1 X110.724 Y102.994 E0.22241
G1 X110.788 Y102.838 E0.23282
G1 X110.821 Y102.632 E0.24575
G1 X110.811 Y102.457 E0.25658
G1 X110.748 Y102.24 E0.27056
G1 X110.622 Y102.064 E0.28388
G1 X110.486 Y101.961 E0.29444
G1 X110.203 Y101.855 E0.31313
G1 X109.742 Y101.803 E0.34179
G1 X109.034 Y101.836 E0.38562
G1 X110.33 Y99.998 E0.52466
G1 X110.573 Y99.625 E0.55216
G1 X110.684 Y99.377 E0.56898
G1 X110.738 Y99.087 E0.58718
G1 X110.723 Y98.817 E0.6039
