; generated by SuperSlicer 2.5.59.13 on 2024-07-22 at 09:39:09 UTC

; 

; external perimeters extrusion width = 0.56mm
; perimeters extrusion width = 0.56mm
; infill extrusion width = 0.56mm
; solid infill extrusion width = 0.56mm
; top infill extrusion width = 0.56mm
; first layer extrusion width = 0.56mm

; object:{"name":"box","id":"box.stl id:0 copy 0","object_center":[100.000000,99.999999,0.000000],"boundingbox_center":[100.000000,99.999999,25.482914],"boundingbox_size":[56.936249,112.287529,50.965828]}
; Total objects to print: 1
M486 T1
; plater:{"center":[100.000000,99.999999,0.000000],"boundingbox_center":[100.000000,99.999999,25.482914],"boundingbox_size":[56.936249,112.287529,50.965828]}

M107
M104 S200 ; set temperature
;TYPE:Custom
G28 ; home all axes
G1 Z5 F5000 ; lift nozzle

M107
G21 ; set units to millimeters
G90 ; use absolute coordinates
M82 ; use absolute distances for extrusion
G92 E0
; Filament gcode
M109 S200 ; set temperature and wait for it to be reached
;LAYER_CHANGE
;Z:0.3
;HEIGHT:0.3
G1 Z0.3 F7800
G1 E-2.000000 F2400
G1 X80.137 Y41.669 F7800
G1 E0.000000 F2400
;TYPE:Skirt
;WIDTH:0.52
M107
G1 F1800
G1 X79.74 Y43.856 E0.12633
G1 X79.74 Y86.406 E2.54434
G1 X80.485 Y89.36 E2.71744
G1 X81.872 Y91.097 E2.84378
G1 X83.781 Y92.237 E2.97011
G1 X85.968 Y92.634 E3.09644
G1 X128.468 Y92.634 E5.51161
G1 X131.422 Y91.889 E5.68471
G1 X133.159 Y90.502 E5.81104
G1 X134.299 Y88.594 E5.93738
G1 X134.696 Y86.406 E6.06371
G1 X134.696 Y43.856 E8.48172
G1 X133.951 Y40.903 E8.65482
G1 X132.564 Y39.165 E8.78115
G1 X130.656 Y38.025 E8.90749
G1 X128.468 Y37.628 E9.03382
G1 X85.968 Y37.628 E11.44899
G1 X83.014 Y38.373 E11.62209
G1 X81.277 Y39.76 E11.74842
G1 X80.168 Y41.617 E11.87134
M107
G92 E0
G1 E-2.000000 F2400
; printing object box.stl id:0 copy 0
M486 S0
G1 X87.239 Y45.127 F7800
G1 E0.000000 F2400
;TYPE:Internal perimeter
;WIDTH:0.56
M107
G1 F1800
G1 X127.197 Y45.127 E2.47003
G1 X127.197 Y85.135 E4.94315
G1 X87.239 Y85.135 E7.41318
G1 X87.239 Y45.187 E9.88259
M107
G1 X86.744 Y44.632 F7800
M107
G1 F1800
G1 X127.693 Y44.632 E12.4139
G1 X127.693 Y85.631 E14.9483
G1 X86.744 Y85.631 E17.47959
G1 X86.744 Y44.692 E20.01029
M107
G1 X86.248 Y44.136 F7800
;TYPE:External perimeter
M107
G1 F1800
G1 X128.188 Y44.136 E22.60286
G1 X128.188 Y86.126 E25.19854
G1 X86.248 Y86.126 E27.79111
G1 X86.248 Y44.196 E30.38308
M107
;WIPE_START
G1 X86.595 Y44.336 F7800
;WIPE_END
G92 E0
G1 E-2.000000 F2400
G1 X126.046 Y45.276 F7800
G1 E0.000000 F2400
;TYPE:Solid infill
;WIDTH:0.552589
M107
G1 F1800
G1 X126.835 Y46.065 E0.06804
G1 X126.835 Y46.766 E0.1108
G1 X125.559 Y45.489 E0.22092
G1 X124.858 Y45.489 E0.26367
G1 X126.835 Y47.467 E0.43426
G1 X126.835 Y48.168 E0.47701
G1 X124.157 Y45.489 E0.70806
G1 X123.456 Y45.489 E0.75082
G1 X126.835 Y48.869 E1.04233
G1 X126.835 Y49.569 E1.08508
G1 X122.755 Y45.489 E1.43706
G1 X122.054 Y45.489 E1.47982
G1 X126.835 Y50.27 E1.89226
G1 X126.835 Y50.971 E1.93501
G1 X121.353 Y45.489 E2.40791
G1 X120.652 Y45.489 E2.45067
G1 X126.835 Y51.672 E2.98404
G1 X126.835 Y52.373 E3.0268
G1 X119.951 Y45.489 E3.62062
G1 X119.25 Y45.489 E3.66338
G1 X126.835 Y53.074 E4.31768
G1 X126.835 Y53.775 E4.36043
G1 X118.549 Y45.489 E5.07519
G1 X117.849 Y45.489 E5.11795
G1 X126.835 Y54.476 E5.89317
G1 X126.835 Y55.177 E5.93592
G1 X117.148 Y45.489 E6.77162
G1 X116.447 Y45.489 E6.81436
G1 X126.835 Y55.878 E7.71052
G1 X126.835 Y56.579 E7.75328
G1 X115.746 Y45.489 E8.70988
G1 X115.045 Y45.489 E8.75265
G1 X126.835 Y57.279 E9.76972
G1 X126.835 Y57.98 E9.81248
G1 X114.344 Y45.489 E10.89002
G1 X113.643 Y45.489 E10.93278
G1 X126.835 Y58.681 E12.07078
G1 X126.835 Y59.382 E12.11354
G1 X112.942 Y45.489 E13.31201
G1 X112.241 Y45.489 E13.35476
G1 X126.835 Y60.083 E14.6137
G1 X126.835 Y60.784 E14.65645
G1 X111.54 Y45.489 E15.97585
G1 X110.839 Y45.489 E16.01861
G1 X126.835 Y61.485 E17.39847
G1 X126.835 Y62.186 E17.44122
G1 X110.139 Y45.489 E18.88155
G1 X109.438 Y45.489 E18.92431
G1 X126.835 Y62.887 E20.42509
G1 X126.835 Y63.588 E20.46785
G1 X108.737 Y45.489 E22.0291
G1 X108.036 Y45.489 E22.07186
G1 X126.835 Y64.289 E23.69358
G1 X126.835 Y64.989 E23.73633
G1 X107.335 Y45.489 E25.41851
G1 X106.634 Y45.489 E25.46127
G1 X126.835 Y65.69 E27.20392
G1 X126.835 Y66.391 E27.24666
G1 X105.933 Y45.489 E29.04978
G1 X105.232 Y45.489 E29.09254
G1 X126.835 Y67.092 E30.9561
G1 X126.835 Y67.793 E30.99886
G1 X104.531 Y45.489 E32.9229
G1 X103.83 Y45.489 E32.96565
G1 X126.835 Y68.494 E34.95016
G1 X126.835 Y69.195 E34.99291
G1 X103.129 Y45.489 E37.03787
G1 X102.428 Y45.489 E37.08063
G1 X126.835 Y69.896 E39.18606
G1 X126.835 Y70.597 E39.22881
G1 X101.728 Y45.489 E41.39471
G1 X101.027 Y45.489 E41.43746
G1 X126.835 Y71.298 E43.66381
G1 X126.835 Y71.999 E43.70658
G1 X100.326 Y45.489 E45.99339
G1 X99.625 Y45.489 E46.03614
G1 X126.835 Y72.7 E48.38344
G1 X126.835 Y73.4 E48.42618
G1 X98.924 Y45.489 E50.83394
G1 X98.223 Y45.489 E50.87669
G1 X126.835 Y74.101 E53.3449
G1 X126.835 Y74.802 E53.38765
G1 X97.522 Y45.489 E55.91633
G1 X96.821 Y45.489 E55.95909
G1 X126.835 Y75.503 E58.54823
G1 X126.835 Y76.204 E58.59098
G1 X96.12 Y45.489 E61.24058
G1 X95.419 Y45.489 E61.28334
G1 X126.835 Y76.905 E63.99341
G1 X126.835 Y77.606 E64.03616
G1 X94.718 Y45.489 E66.8067
G1 X94.018 Y45.489 E66.84945
G1 X126.835 Y78.307 E69.68044
G1 X126.835 Y79.008 E69.7232
G1 X93.317 Y45.489 E72.61466
G1 X92.616 Y45.489 E72.65741
G1 X126.835 Y79.709 E75.60933
G1 X126.835 Y80.41 E75.6521
G1 X91.915 Y45.489 E78.66447
G1 X91.214 Y45.489 E78.70723
G1 X126.835 Y81.11 E81.78009
G1 X126.835 Y81.811 E81.82283
G1 X90.513 Y45.489 E84.95616
G1 X89.812 Y45.489 E84.9989
G1 X126.835 Y82.512 E88.19269
G1 X126.835 Y83.213 E88.23544
G1 X89.111 Y45.489 E91.48968
G1 X88.41 Y45.489 E91.53244
G1 X126.835 Y83.914 E94.84714
G1 X126.835 Y84.615 E94.8899
G1 X87.709 Y45.489 E98.26507
G1 X87.601 Y45.489 E98.27167
G1 X87.601 Y46.082 E98.30782
G1 X126.292 Y84.773 E101.64552
G1 X125.591 Y84.773 E101.68826
G1 X87.601 Y46.783 E104.96549
G1 X87.601 Y47.484 E105.00825
G1 X124.891 Y84.773 E108.22501
G1 X124.19 Y84.773 E108.26776
G1 X87.601 Y48.185 E111.42406
G1 X87.601 Y48.886 E111.46681
G1 X123.489 Y84.773 E114.56265
G1 X122.788 Y84.773 E114.6054
G1 X87.601 Y49.587 E117.64078
G1 X87.601 Y50.287 E117.68352
G1 X122.087 Y84.773 E120.65843
G1 X121.386 Y84.773 E120.70119
G1 X87.601 Y50.988 E123.61563
G1 X87.601 Y51.689 E123.65838
G1 X120.685 Y84.773 E126.51236
G1 X119.984 Y84.773 E126.55512
G1 X87.601 Y52.39 E129.34863
G1 X87.601 Y53.091 E129.39138
G1 X119.283 Y84.773 E132.12444
G1 X118.582 Y84.773 E132.16718
G1 X87.601 Y53.792 E134.83978
G1 X87.601 Y54.493 E134.88253
G1 X117.881 Y84.773 E137.49465
G1 X117.181 Y84.773 E137.53741
G1 X87.601 Y55.194 E140.08907
G1 X87.601 Y55.895 E140.13182
G1 X116.48 Y84.773 E142.62301
G1 X115.779 Y84.773 E142.66577
G1 X87.601 Y56.596 E145.0965
G1 X87.601 Y57.297 E145.13926
G1 X115.078 Y84.773 E147.50952
G1 X114.377 Y84.773 E147.55227
G1 X87.601 Y57.997 E149.86208
G1 X87.601 Y58.698 E149.90484
G1 X113.676 Y84.773 E152.15417
G1 X112.975 Y84.773 E152.19693
G1 X87.601 Y59.399 E154.3858
G1 X87.601 Y60.1 E154.42856
G1 X112.274 Y84.773 E156.55697
G1 X111.573 Y84.773 E156.59973
G1 X87.601 Y60.801 E158.66767
G1 X87.601 Y61.502 E158.71042
G1 X110.872 Y84.773 E160.71792
G1 X110.171 Y84.773 E160.76066
G1 X87.601 Y62.203 E162.70769
G1 X87.601 Y62.904 E162.75043
G1 X109.471 Y84.773 E164.637
G1 X108.77 Y84.773 E164.67975
G1 X87.601 Y63.605 E166.50584
G1 X87.601 Y64.306 E166.5486
G1 X108.069 Y84.773 E168.31423
G1 X107.368 Y84.773 E168.35698
G1 X87.601 Y65.007 E170.06214
G1 X87.601 Y65.707 E170.1049
G1 X106.667 Y84.773 E171.7496
G1 X105.966 Y84.773 E171.79235
G1 X87.601 Y66.408 E173.3766
G1 X87.601 Y67.109 E173.41934
G1 X105.265 Y84.773 E174.94312
G1 X104.564 Y84.773 E174.98587
G1 X87.601 Y67.81 E176.44919
G1 X87.601 Y68.511 E176.49193
G1 X103.863 Y84.773 E177.89478
G1 X103.162 Y84.773 E177.93754
G1 X87.601 Y69.212 E179.27992
G1 X87.601 Y69.913 E179.32267
G1 X102.461 Y84.773 E180.60459
G1 X101.761 Y84.773 E180.64734
G1 X87.601 Y70.614 E181.8688
G1 X87.601 Y71.315 E181.91155
G1 X101.06 Y84.773 E183.07255
G1 X100.359 Y84.773 E183.11529
G1 X87.601 Y72.016 E184.21583
G1 X87.601 Y72.717 E184.25857
G1 X99.658 Y84.773 E185.29864
G1 X98.957 Y84.773 E185.3414
G1 X87.601 Y73.417 E186.32099
G1 X87.601 Y74.118 E186.36374
G1 X98.256 Y84.773 E187.28288
G1 X97.555 Y84.773 E187.32564
G1 X87.601 Y74.819 E188.18431
G1 X87.601 Y75.52 E188.22706
G1 X96.854 Y84.773 E189.02526
G1 X96.153 Y84.773 E189.06802
G1 X87.601 Y76.221 E189.80577
G1 X87.601 Y76.922 E189.84852
G1 X95.452 Y84.773 E190.52579
G1 X94.751 Y84.773 E190.56855
G1 X87.601 Y77.623 E191.18537
G1 X87.601 Y78.324 E191.22812
G1 X94.05 Y84.773 E191.78447
G1 X93.35 Y84.773 E191.82723
G1 X87.601 Y79.025 E192.32312
G1 X87.601 Y79.726 E192.36586
G1 X92.649 Y84.773 E192.8013
G1 X91.948 Y84.773 E192.84404
G1 X87.601 Y80.427 E193.21901
G1 X87.601 Y81.128 E193.26176
G1 X91.247 Y84.773 E193.57625
G1 X90.546 Y84.773 E193.61901
G1 X87.601 Y81.828 E193.87305
G1 X87.601 Y82.529 E193.91579
G1 X89.845 Y84.773 E194.10937
G1 X89.144 Y84.773 E194.15212
G1 X87.601 Y83.23 E194.28522
G1 X87.601 Y83.931 E194.32798
G1 X88.443 Y84.773 E194.40062
G1 X87.742 Y84.773 E194.44337
G1 X87.388 Y84.419 E194.47393
M107
;LAYER_CHANGE
;Z:0.5
;HEIGHT:0.2
; stop printing object box.stl id:0 copy 0
M486 S-1
G1 Z0.5 F7800
; printing object box.stl id:0 copy 0
M486 S0
G1 X86.977 Y85.397
;TYPE:Internal perimeter
;WIDTH:0.45
M107
G1 F3600
G1 X86.977 Y44.865 E195.84588
G1 X127.459 Y44.865 E197.21614
G1 X127.459 Y85.397 E198.58809
G1 X87.037 Y85.397 E199.95631
M107
G1 X86.57 Y85.804 F7800
M107
G1 F3600
G1 X86.57 Y44.458 E201.35583
G1 X127.866 Y44.458 E202.75363
G1 X127.866 Y85.804 E204.15315
G1 X86.63 Y85.804 E205.54893
M107
G1 X86.178 Y86.196 F7800
;TYPE:External perimeter
;WIDTH:0.42
M107
G1 F1800
G1 X86.178 Y44.066 E206.86988
G1 X128.258 Y44.066 E208.18928
G1 X128.258 Y86.196 E209.51023
G1 X86.238 Y86.196 E210.82774
M107
;WIPE_START
G1 X86.378 Y85.85 F7800
;WIPE_END
G92 E0
G1 E-2.000000 F2400
G1 X87.107 Y45.797 F7800
G1 E0.000000 F2400
;TYPE:Solid infill
;WIDTH:0.445538
M107
G1 F1800
G1 X87.733 Y45.17 E0.0297
G1 X88.309 Y45.17 E0.04899
G1 X87.282 Y46.197 E0.09767
G1 X87.282 Y46.773 E0.11697
G1 X88.885 Y45.17 E0.19294
G1 X89.461 Y45.17 E0.21223
G1 X87.282 Y47.349 E0.31548
G1 X87.282 Y47.924 E0.33478
G1 X90.036 Y45.17 E0.46532
G1 X90.612 Y45.17 E0.48461
G1 X87.282 Y48.5 E0.64244
G1 X87.282 Y49.076 E0.66173
G1 X91.188 Y45.17 E0.84684
G1 X91.763 Y45.17 E0.86614
G1 X87.282 Y49.651 E1.07853
G1 X87.282 Y50.227 E1.09782
G1 X92.339 Y45.17 E1.3375
G1 X92.915 Y45.17 E1.3568
G1 X87.282 Y50.803 E1.62376
G1 X87.282 Y51.379 E1.64306
G1 X93.49 Y45.17 E1.9373
G1 X94.066 Y45.17 E1.9566
G1 X87.282 Y51.954 E2.27813
G1 X87.282 Y52.53 E2.29743
G1 X94.642 Y45.17 E2.64625
G1 X95.218 Y45.17 E2.66554
G1 X87.282 Y53.106 E3.04164
G1 X87.282 Y53.681 E3.06094
G1 X95.793 Y45.17 E3.46433
G1 X96.369 Y45.17 E3.48362
G1 X87.282 Y54.257 E3.9143
G1 X87.282 Y54.833 E3.93359
G1 X96.945 Y45.17 E4.39155
G1 X97.52 Y45.17 E4.41084
G1 X87.282 Y55.408 E4.89609
G1 X87.282 Y55.984 E4.91539
G1 X98.096 Y45.17 E5.42791
G1 X98.672 Y45.17 E5.44721
G1 X87.282 Y56.56 E5.98702
G1 X87.282 Y57.135 E6.00631
G1 X99.247 Y45.17 E6.57342
G1 X99.823 Y45.17 E6.59271
G1 X87.282 Y57.711 E7.18709
G1 X87.282 Y58.287 E7.20639
G1 X100.399 Y45.17 E7.82806
G1 X100.974 Y45.17 E7.84735
G1 X87.282 Y58.863 E8.4963
G1 X87.282 Y59.438 E8.5156
G1 X101.55 Y45.17 E9.19184
G1 X102.126 Y45.17 E9.21114
G1 X87.282 Y60.014 E9.91466
G1 X87.282 Y60.59 E9.93395
G1 X102.702 Y45.17 E10.66476
G1 X103.277 Y45.17 E10.68406
G1 X87.282 Y61.165 E11.44215
G1 X87.282 Y61.741 E11.46144
G1 X103.853 Y45.17 E12.24683
G1 X104.429 Y45.17 E12.26612
G1 X87.282 Y62.317 E13.07878
G1 X87.282 Y62.892 E13.09808
G1 X105.004 Y45.17 E13.93803
G1 X105.58 Y45.17 E13.95732
G1 X87.282 Y63.468 E14.82455
G1 X87.282 Y64.044 E14.84385
G1 X106.156 Y45.17 E15.73837
G1 X106.731 Y45.17 E15.75767
G1 X87.282 Y64.62 E16.67947
G1 X87.282 Y65.195 E16.69876
G1 X107.307 Y45.17 E17.64785
G1 X107.883 Y45.17 E17.66715
G1 X87.282 Y65.771 E18.64352
G1 X87.282 Y66.347 E18.66282
G1 X108.459 Y45.17 E19.66647
G1 X109.034 Y45.17 E19.68577
G1 X87.282 Y66.922 E20.71672
G1 X87.282 Y67.498 E20.73601
G1 X109.61 Y45.17 E21.79424
G1 X110.186 Y45.17 E21.81353
G1 X87.282 Y68.074 E22.89905
G1 X87.282 Y68.649 E22.91834
G1 X110.761 Y45.17 E24.03114
G1 X111.337 Y45.17 E24.05044
G1 X87.282 Y69.225 E25.19052
G1 X87.282 Y69.801 E25.20981
G1 X111.913 Y45.17 E26.37719
G1 X112.488 Y45.17 E26.39648
G1 X87.282 Y70.377 E27.59113
G1 X87.282 Y70.952 E27.61043
G1 X113.064 Y45.17 E28.83237
G1 X113.64 Y45.17 E28.85166
G1 X87.282 Y71.528 E30.10089
G1 X87.282 Y72.104 E30.12018
G1 X114.216 Y45.17 E31.39669
G1 X114.791 Y45.17 E31.41599
G1 X87.282 Y72.679 E32.71978
G1 X87.282 Y73.255 E32.73907
G1 X115.367 Y45.17 E34.07016
G1 X115.943 Y45.17 E34.08945
G1 X87.282 Y73.831 E35.44781
G1 X87.282 Y74.406 E35.46711
G1 X116.518 Y45.17 E36.85276
G1 X117.094 Y45.17 E36.87205
G1 X87.282 Y74.982 E38.28499
G1 X87.282 Y75.558 E38.30428
G1 X117.67 Y45.17 E39.7445
G1 X118.245 Y45.17 E39.7638
G1 X87.282 Y76.133 E41.2313
G1 X87.282 Y76.709 E41.25059
G1 X118.821 Y45.17 E42.74539
G1 X119.397 Y45.17 E42.76468
G1 X87.282 Y77.285 E44.28675
G1 X87.282 Y77.861 E44.30605
G1 X119.972 Y45.17 E45.85541
G1 X120.548 Y45.17 E45.8747
G1 X87.282 Y78.436 E47.45135
G1 X87.282 Y79.012 E47.47064
G1 X121.124 Y45.17 E49.07458
G1 X121.7 Y45.17 E49.09386
G1 X87.282 Y79.588 E50.72509
G1 X87.282 Y80.163 E50.74437
G1 X122.275 Y45.17 E52.40288
G1 X122.851 Y45.17 E52.42217
G1 X87.282 Y80.739 E54.10796
G1 X87.282 Y81.315 E54.12725
G1 X123.427 Y45.17 E55.84032
G1 X124.002 Y45.17 E55.85961
G1 X87.282 Y81.89 E57.59997
G1 X87.282 Y82.466 E57.61926
G1 X124.578 Y45.17 E59.38691
G1 X125.154 Y45.17 E59.4062
G1 X87.282 Y83.042 E61.20112
G1 X87.282 Y83.618 E61.22042
G1 X125.729 Y45.17 E63.04263
G1 X126.305 Y45.17 E63.06192
G1 X87.282 Y84.193 E64.91142
G1 X87.282 Y84.769 E64.93071
G1 X126.881 Y45.17 E66.80749
G1 X127.154 Y45.17 E66.81666
G1 X127.154 Y45.472 E66.82679
G1 X87.534 Y85.092 E68.70457
G1 X88.11 Y85.092 E68.72387
G1 X127.154 Y46.048 E70.57438
G1 X127.154 Y46.624 E70.59367
G1 X88.686 Y85.092 E72.41689
G1 X89.261 Y85.092 E72.43618
G1 X127.154 Y47.199 E74.23212
G1 X127.154 Y47.775 E74.25141
G1 X89.837 Y85.092 E76.02006
G1 X90.413 Y85.092 E76.03936
G1 X127.154 Y48.351 E77.78072
G1 X127.154 Y48.926 E77.80001
G1 X90.988 Y85.092 E79.51409
G1 X91.564 Y85.092 E79.53339
G1 X127.154 Y49.502 E81.22018
G1 X127.154 Y50.078 E81.23948
G1 X92.14 Y85.092 E82.89899
G1 X92.715 Y85.092 E82.91827
G1 X127.154 Y50.654 E84.55051
G1 X127.154 Y51.229 E84.5698
G1 X93.291 Y85.092 E86.17474
G1 X93.867 Y85.092 E86.19403
G1 X127.154 Y51.805 E87.77169
G1 X127.154 Y52.381 E87.79098
G1 X94.442 Y85.092 E89.34135
G1 X95.018 Y85.092 E89.36064
G1 X127.154 Y52.956 E90.88373
G1 X127.154 Y53.532 E90.90302
G1 X95.594 Y85.092 E92.39882
G1 X96.17 Y85.092 E92.41812
G1 X127.154 Y54.108 E93.88663
G1 X127.154 Y54.683 E93.90593
G1 X96.745 Y85.092 E95.34715
G1 X97.321 Y85.092 E95.36645
G1 X127.154 Y55.259 E96.78039
G1 X127.154 Y55.835 E96.79969
G1 X97.897 Y85.092 E98.18635
G1 X98.472 Y85.092 E98.20564
G1 X127.154 Y56.41 E99.56501
G1 X127.154 Y56.986 E99.58431
G1 X99.048 Y85.092 E100.9164
G1 X99.624 Y85.092 E100.93569
G1 X127.154 Y57.562 E102.2405
G1 X127.154 Y58.138 E102.25979
G1 X100.199 Y85.092 E103.53731
G1 X100.775 Y85.092 E103.5566
G1 X127.154 Y58.713 E104.80684
G1 X127.154 Y59.289 E104.82613
G1 X101.351 Y85.092 E106.04908
G1 X101.927 Y85.092 E106.06838
G1 X127.154 Y59.865 E107.26404
G1 X127.154 Y60.44 E107.28333
G1 X102.502 Y85.092 E108.45171
G1 X103.078 Y85.092 E108.47101
G1 X127.154 Y61.016 E109.6121
G1 X127.154 Y61.592 E109.6314
G1 X103.654 Y85.092 E110.7452
G1 X104.229 Y85.092 E110.7645
G1 X127.154 Y62.167 E111.85102
G1 X127.154 Y62.743 E111.87032
G1 X104.805 Y85.092 E112.92956
G1 X105.381 Y85.092 E112.94885
G1 X127.154 Y63.319 E113.9808
G1 X127.154 Y63.895 E114.0001
G1 X105.956 Y85.092 E115.00477
G1 X106.532 Y85.092 E115.02406
G1 X127.154 Y64.47 E116.00145
