; generated by SuperSlicer 2.5.59.13 on 2024-08-14 at 10:38:00 UTC

; 

; external perimeters extrusion width = 0.56mm
; perimeters extrusion width = 0.56mm
; infill extrusion width = 0.56mm
; solid infill extrusion width = 0.56mm
; top infill extrusion width = 0.56mm
; first layer extrusion width = 0.56mm

; object:{"name":"Tiny_Tester","id":"Tiny_Tester.stl id:0 copy 0","object_center":[100.000000,100.000000,0.000000],"boundingbox_center":[100.000000,100.000000,6.300000],"boundingbox_size":[20.000000,23.700001,12.600000]}
; Total objects to print: 1
M486 T1
; plater:{"center":[100.000000,100.000000,0.000000],"boundingbox_center":[100.000000,100.000000,6.300000],"boundingbox_size":[20.000000,23.700001,12.600000]}

M107
M104 S200 ; set temperature
;TYPE:Custom
G28 ; home all axes
G1 Z5 F5000 ; lift nozzle

M107
G21 ; set units to millimeters
G90 ; use absolute coordinates
M82 ; use absolute distances for extrusion
G92 E0
; Filament gcode
M109 S200 ; set temperature and wait for it to be reached
;LAYER_CHANGE
;Z:0.3
;HEIGHT:0.3
G1 Z0.3 F7800
G1 E-2.000000 F2400
G1 X85.309 Y84.054 F7800
G1 E0.000000 F2400
;TYPE:Skirt
;WIDTH:0.52
M107
G1 F1800
G1 X84.169 Y85.963 E0.12633
G1 X83.772 Y88.15 E0.25267
G1 X83.793 Y111.952 E1.6053
G1 X84.537 Y114.804 E1.77275
G1 X85.924 Y116.541 E1.89909
G1 X87.832 Y117.681 E2.02542
G1 X90.02 Y118.078 E2.15175
G1 X109.98 Y118.078 E3.28605
G1 X112.843 Y117.381 E3.45351
G1 X114.603 Y116.023 E3.57984
G1 X115.774 Y114.133 E3.70618
G1 X116.207 Y111.952 E3.8325
G1 X116.228 Y88.15 E5.18514
G1 X115.483 Y85.196 E5.35825
G1 X114.096 Y83.459 E5.48458
G1 X112.187 Y82.319 E5.61091
G1 X110.000000 Y81.922 E5.73724
G1 X90.000000 Y81.922 E6.8738
G1 X87.046 Y82.667 E7.04689
G1 X85.356 Y84.016 E7.16982
M107
G92 E0
G1 E-2.000000 F2400
; printing object Tiny_Tester.stl id:0 copy 0
M486 S0
G1 X91.623 Y94.217 F7800
G1 E0.000000 F2400
;TYPE:Internal perimeter
;WIDTH:0.56
M107
G1 F1800
G1 X91.59 Y94.259 E0.00329
G1 X91.312 Y94.93 E0.04819
G1 X91.218 Y95.65 E0.09308
G1 X91.312 Y96.37 E0.13799
G1 X91.59 Y97.041 E0.18289
G1 X92.033 Y97.617 E0.22778
G1 X92.609 Y98.06 E0.27268
G1 X93.28 Y98.338 E0.31759
G1 X94 Y98.432 E0.36248
G1 X94.72 Y98.338 E0.40738
G1 X95.391 Y98.06 E0.45228
G1 X95.967 Y97.617 E0.49717
G1 X96.41 Y97.041 E0.54208
G1 X96.688 Y96.37 E0.58698
G1 X96.782 Y95.65 E0.63187
G1 X96.688 Y94.93 E0.67678
G1 X96.41 Y94.259 E0.72167
G1 X96.15 Y93.921 E0.74801
G1 X95.967 Y93.683 E0.76657
G1 X95.391 Y93.24 E0.81147
G1 X94.72 Y92.962 E0.85637
G1 X94.000000 Y92.868 E0.90127
G1 X93.28 Y92.962 E0.94617
G1 X92.609 Y93.24 E0.99107
G1 X92.033 Y93.683 E1.03597
G1 X91.659 Y94.169 E1.07386
M107
G1 X92.023 Y94.509 F7800
;TYPE:External perimeter
M107
G1 F1800
G1 X91.795 Y95.059 E1.1107
G1 X91.718 Y95.65 E1.14754
G1 X91.795 Y96.241 E1.18436
G1 X92.023 Y96.791 E1.2212
G1 X92.386 Y97.264 E1.25802
G1 X92.859 Y97.627 E1.29486
G1 X93.409 Y97.855 E1.3317
G1 X94.000000 Y97.932 E1.36852
G1 X94.591 Y97.855 E1.40536
G1 X95.141 Y97.627 E1.44218
G1 X95.614 Y97.264 E1.47903
G1 X95.977 Y96.791 E1.51585
G1 X96.205 Y96.241 E1.55268
G1 X96.282 Y95.65 E1.58952
G1 X96.205 Y95.059 E1.62635
G1 X95.977 Y94.509 E1.66318
G1 X95.757 Y94.223 E1.68548
G1 X95.614 Y94.036 E1.70001
G1 X95.141 Y93.673 E1.73685
G1 X94.591 Y93.445 E1.77367
G1 X94.000000 Y93.368 E1.81051
G1 X93.409 Y93.445 E1.84734
G1 X92.859 Y93.673 E1.88418
G1 X92.386 Y94.036 E1.921
G1 X92.06 Y94.461 E1.95413
M107
;WIPE_START
G1 X91.803 Y94.518 F7800
;WIPE_END
G92 E0
G1 E-2.000000 F2400
G1 X98.904 Y93.118 F7800
G1 E0.000000 F2400
;TYPE:Internal perimeter
M107
G1 F1800
G1 X98.609 Y93.24 E0.01976
G1 X98.033 Y93.683 E0.06466
G1 X97.59 Y94.259 E0.10956
G1 X97.312 Y94.93 E0.15445
G1 X97.218 Y95.65 E0.19936
G1 X97.312 Y96.37 E0.24425
G1 X97.59 Y97.041 E0.28916
G1 X98.033 Y97.617 E0.33405
G1 X98.609 Y98.06 E0.37895
G1 X99.28 Y98.338 E0.42385
G1 X100.000000 Y98.432 E0.46875
G1 X100.72 Y98.338 E0.51365
G1 X101.391 Y98.06 E0.55855
G1 X101.967 Y97.617 E0.60344
G1 X102.41 Y97.041 E0.64835
G1 X102.688 Y96.37 E0.69324
G1 X102.782 Y95.65 E0.73815
G1 X102.688 Y94.93 E0.78304
G1 X102.41 Y94.259 E0.82794
G1 X101.967 Y93.683 E0.87284
G1 X101.391 Y93.24 E0.91774
G1 X100.72 Y92.962 E0.96264
G1 X100.000000 Y92.868 E1.00754
G1 X99.28 Y92.962 E1.05244
G1 X98.96 Y93.095 E1.07387
M107
G1 X99.409 Y93.445 F7800
;TYPE:External perimeter
M107
G1 F1800
G1 X98.859 Y93.673 E1.11069
G1 X98.386 Y94.036 E1.14754
G1 X98.023 Y94.509 E1.18436
G1 X97.795 Y95.059 E1.2212
G1 X97.718 Y95.65 E1.25802
G1 X97.795 Y96.241 E1.29486
G1 X98.023 Y96.791 E1.3317
G1 X98.386 Y97.264 E1.36852
G1 X98.859 Y97.627 E1.40536
G1 X99.409 Y97.855 E1.44218
G1 X100.000000 Y97.932 E1.47902
G1 X100.591 Y97.855 E1.51586
G1 X101.141 Y97.627 E1.55268
G1 X101.614 Y97.264 E1.58952
G1 X101.977 Y96.791 E1.62634
G1 X102.205 Y96.241 E1.66319
G1 X102.282 Y95.65 E1.70001
G1 X102.205 Y95.059 E1.73684
G1 X101.977 Y94.509 E1.77368
G1 X101.614 Y94.036 E1.81051
G1 X101.141 Y93.673 E1.84734
G1 X100.591 Y93.445 E1.88417
G1 X100.000000 Y93.368 E1.92101
G1 X99.469 Y93.438 E1.95412
M107
;WIPE_START
G1 X99.247 Y93.296 F7800
;WIPE_END
G92 E0
G1 E-2.000000 F2400
G1 X103.000000 Y97.086 F7800
G1 E0.000000 F2400
;TYPE:Internal perimeter
M107
G1 F1800
G1 X103.679 Y97.971 E0.06896
G1 X104.359 Y98.492 E0.12193
G1 X105.15 Y98.82 E0.17489
G1 X106.000000 Y98.932 E0.22786
G1 X106.85 Y98.82 E0.28083
G1 X107.641 Y98.492 E0.33379
G1 X108.321 Y97.971 E0.38676
G1 X108.46 Y97.79 E0.40085
G1 X108.729 Y97.881 E0.41842
G1 X108.729 Y100.919 E0.60619
G1 X108.46 Y101.01 E0.62375
G1 X108.321 Y100.829 E0.63786
G1 X107.641 Y100.308 E0.69081
G1 X106.85 Y99.98 E0.74378
G1 X106.000000 Y99.868 E0.79675
G1 X105.15 Y99.98 E0.84972
G1 X104.359 Y100.308 E0.90268
G1 X103.679 Y100.829 E0.95565
G1 X103.000000 Y101.714 E1.02461
G1 X102.321 Y100.829 E1.09357
G1 X101.641 Y100.308 E1.14653
G1 X100.85 Y99.98 E1.1995
G1 X100.000000 Y99.868 E1.25247
G1 X99.15 Y99.98 E1.30544
G1 X98.359 Y100.308 E1.3584
G1 X97.679 Y100.829 E1.41136
G1 X97 Y101.714 E1.48033
G1 X96.321 Y100.829 E1.54929
G1 X95.641 Y100.308 E1.60226
G1 X94.85 Y99.98 E1.65522
G1 X94.000000 Y99.868 E1.70819
G1 X93.15 Y99.98 E1.76115
G1 X92.359 Y100.308 E1.81412
G1 X91.679 Y100.829 E1.86708
G1 X91.54 Y101.01 E1.88119
G1 X91.271 Y100.919 E1.89875
G1 X91.271 Y97.881 E2.08651
G1 X91.54 Y97.79 E2.10408
G1 X91.679 Y97.971 E2.11818
G1 X92.359 Y98.492 E2.17115
G1 X93.15 Y98.82 E2.22411
G1 X94.000000 Y98.932 E2.27707
G1 X94.85 Y98.82 E2.33005
G1 X95.641 Y98.492 E2.383
G1 X96.321 Y97.971 E2.43598
G1 X97 Y97.086 E2.50494
G1 X97.679 Y97.971 E2.57389
G1 X98.359 Y98.492 E2.62687
G1 X99.15 Y98.82 E2.67983
G1 X100.000000 Y98.932 E2.73279
G1 X100.85 Y98.82 E2.78577
G1 X101.641 Y98.492 E2.83872
G1 X102.321 Y97.971 E2.8917
G1 X102.963 Y97.133 E2.95694
M107
G92 E0
G1 E-2.000000 F2400
G1 X101.342 Y100.72 F7800
G1 E0.000000 F2400
M107
G1 F1800
G1 X100.72 Y100.462 E0.04161
G1 X100.000000 Y100.368 E0.08651
G1 X99.28 Y100.462 E0.13141
G1 X98.609 Y100.74 E0.1763
G1 X98.033 Y101.183 E0.22121
G1 X97.59 Y101.759 E0.26611
G1 X97.312 Y102.43 E0.311
G1 X97.218 Y103.15 E0.3559
G1 X97.312 Y103.87 E0.40081
G1 X97.59 Y104.541 E0.4457
G1 X98.033 Y105.117 E0.4906
G1 X98.609 Y105.56 E0.5355
G1 X99.28 Y105.838 E0.58039
G1 X100.000000 Y105.932 E0.6253
G1 X100.72 Y105.838 E0.6702
G1 X101.391 Y105.56 E0.71509
G1 X101.967 Y105.117 E0.76
G1 X102.41 Y104.541 E0.80489
G1 X102.688 Y103.87 E0.84979
G1 X102.782 Y103.15 E0.89469
G1 X102.688 Y102.43 E0.93959
G1 X102.41 Y101.759 E0.98449
G1 X101.967 Y101.183 E1.02939
G1 X101.397 Y100.745 E1.07387
M107
G1 X101.141 Y101.173 F7800
;TYPE:External perimeter
M107
G1 F1800
G1 X100.591 Y100.945 E1.1107
G1 X100.000000 Y100.868 E1.14753
G1 X99.409 Y100.945 E1.18437
G1 X98.859 Y101.173 E1.22119
G1 X98.386 Y101.536 E1.25803
G1 X98.023 Y102.009 E1.29486
G1 X97.795 Y102.559 E1.33169
G1 X97.718 Y103.15 E1.36853
G1 X97.795 Y103.741 E1.40535
G1 X98.023 Y104.291 E1.44219
G1 X98.386 Y104.764 E1.47902
G1 X98.859 Y105.127 E1.51585
G1 X99.409 Y105.355 E1.55269
G1 X100.000000 Y105.432 E1.58951
G1 X100.591 Y105.355 E1.62635
G1 X101.141 Y105.127 E1.66318
G1 X101.614 Y104.764 E1.70002
G1 X101.977 Y104.291 E1.73684
G1 X102.205 Y103.741 E1.77368
G1 X102.282 Y103.15 E1.81051
G1 X102.205 Y102.559 E1.84734
G1 X101.977 Y102.009 E1.88417
G1 X101.614 Y101.536 E1.92101
G1 X101.189 Y101.21 E1.95412
M107
;WIPE_START
G1 X101.132 Y100.953 F7800
;WIPE_END
G92 E0
G1 E-2.000000 F2400
G1 X103.000000 Y104.586 F7800
G1 E0.000000 F2400
;TYPE:Internal perimeter
M107
G1 F1800
G1 X103.679 Y105.471 E0.06896
G1 X104.359 Y105.992 E0.12193
G1 X105.15 Y106.32 E0.17489
G1 X106.000000 Y106.432 E0.22786
G1 X106.85 Y106.32 E0.28083
G1 X107.641 Y105.992 E0.33379
G1 X108.321 Y105.471 E0.38676
G1 X108.46 Y105.29 E0.40086
G1 X108.729 Y105.381 E0.41842
G1 X108.729 Y109.379 E0.66553
G1 X108.709 Y109.379 E0.66675
G1 X108.709 Y110.579 E0.74093
G1 X91.291 Y110.579 E1.81766
G1 X91.291 Y109.379 E1.89183
G1 X91.271 Y109.379 E1.89305
G1 X91.271 Y105.381 E2.14017
G1 X91.54 Y105.29 E2.15773
G1 X91.679 Y105.471 E2.17182
G1 X92.359 Y105.992 E2.2248
G1 X93.15 Y106.32 E2.27776
G1 X94.000000 Y106.432 E2.33072
G1 X94.85 Y106.32 E2.3837
G1 X95.641 Y105.992 E2.43665
G1 X96.321 Y105.471 E2.48963
G1 X97.000000 Y104.586 E2.55858
G1 X97.679 Y105.471 E2.62755
G1 X98.359 Y105.992 E2.68051
G1 X99.15 Y106.32 E2.73348
G1 X100.000000 Y106.432 E2.78645
G1 X100.85 Y106.32 E2.83941
G1 X101.641 Y105.992 E2.89238
G1 X102.321 Y105.471 E2.94534
G1 X102.963 Y104.633 E3.0106
M107
G92 E0
G1 E-2.000000 F2400
G1 X96.775 Y103.203 F7800
G1 E0.000000 F2400
M107
G1 F1800
G1 X96.782 Y103.15 E0.00329
G1 X96.688 Y102.43 E0.04819
G1 X96.41 Y101.759 E0.09308
G1 X96.15 Y101.421 E0.11942
G1 X95.967 Y101.183 E0.13799
G1 X95.391 Y100.74 E0.18289
G1 X94.72 Y100.462 E0.22778
G1 X94.000000 Y100.368 E0.27268
G1 X93.28 Y100.462 E0.31758
G1 X92.609 Y100.74 E0.36249
G1 X92.033 Y101.183 E0.40738
G1 X91.59 Y101.759 E0.45228
G1 X91.312 Y102.43 E0.49717
G1 X91.218 Y103.15 E0.54208
G1 X91.312 Y103.87 E0.58698
G1 X91.59 Y104.541 E0.63187
G1 X92.033 Y105.117 E0.67678
G1 X92.609 Y105.56 E0.72167
G1 X93.28 Y105.838 E0.76657
G1 X94.000000 Y105.932 E0.81147
G1 X94.72 Y105.838 E0.85637
G1 X95.391 Y105.56 E0.90127
G1 X95.967 Y105.117 E0.94617
G1 X96.41 Y104.541 E0.99107
G1 X96.688 Y103.87 E1.03596
G1 X96.768 Y103.262 E1.07387
M107
G1 X96.282 Y103.15 F7800
;TYPE:External perimeter
M107
G1 F1800
G1 X96.205 Y102.559 E1.1107
G1 X95.977 Y102.009 E1.14753
G1 X95.757 Y101.723 E1.16984
G1 X95.614 Y101.536 E1.18436
G1 X95.141 Y101.173 E1.2212
G1 X94.591 Y100.945 E1.25802
G1 X94.000000 Y100.868 E1.29486
G1 X93.409 Y100.945 E1.3317
G1 X92.859 Y101.173 E1.36852
G1 X92.386 Y101.536 E1.40536
G1 X92.023 Y102.009 E1.44218
G1 X91.795 Y102.559 E1.47902
G1 X91.718 Y103.15 E1.51586
G1 X91.795 Y103.741 E1.55268
G1 X92.023 Y104.291 E1.58952
G1 X92.386 Y104.764 E1.62635
G1 X92.859 Y105.127 E1.66318
G1 X93.409 Y105.355 E1.70001
G1 X94.000000 Y105.432 E1.73684
G1 X94.591 Y105.355 E1.77368
G1 X95.141 Y105.127 E1.81051
G1 X95.614 Y104.764 E1.84734
G1 X95.977 Y104.291 E1.88417
G1 X96.205 Y103.741 E1.92101
G1 X96.275 Y103.209 E1.95413
M107
;WIPE_START
G1 X96.469 Y103.031 F7800
;WIPE_END
G92 E0
G1 E-2.000000 F2400
G1 X103.225 Y103.203 F7800
G1 E0.000000 F2400
;TYPE:Internal perimeter
M107
G1 F1800
G1 X103.312 Y103.87 E0.04161
G1 X103.59 Y104.541 E0.08651
G1 X104.033 Y105.117 E0.13141
G1 X104.609 Y105.56 E0.1763
G1 X105.28 Y105.838 E0.22121
G1 X106.000000 Y105.932 E0.26611
G1 X106.72 Y105.838 E0.311
G1 X107.391 Y105.56 E0.3559
G1 X107.967 Y105.117 E0.40081
G1 X108.41 Y104.541 E0.4457
G1 X108.688 Y103.87 E0.4906
G1 X108.782 Y103.15 E0.5355
G1 X108.688 Y102.43 E0.58039
G1 X108.41 Y101.759 E0.6253
G1 X107.967 Y101.183 E0.6702
G1 X107.391 Y100.74 E0.71509
G1 X106.72 Y100.462 E0.76
G1 X106.000000 Y100.368 E0.80489
G1 X105.28 Y100.462 E0.84979
G1 X104.609 Y100.74 E0.8947
G1 X104.033 Y101.183 E0.93959
G1 X103.59 Y101.759 E0.98449
G1 X103.312 Y102.43 E1.02938
G1 X103.219 Y103.143 E1.07387
M107
G1 X104.023 Y104.291 F7800
;TYPE:External perimeter
M107
G1 F1800
G1 X104.386 Y104.764 E1.1107
G1 X104.859 Y105.127 E1.14753
G1 X105.409 Y105.355 E1.18437
G1 X106.000000 Y105.432 E1.22119
G1 X106.591 Y105.355 E1.25803
G1 X107.141 Y105.127 E1.29486
G1 X107.614 Y104.764 E1.33169
G1 X107.977 Y104.291 E1.36853
G1 X108.205 Y103.741 E1.40535
G1 X108.282 Y103.15 E1.44219
G1 X108.205 Y102.559 E1.47902
G1 X107.977 Y102.009 E1.51585
G1 X107.614 Y101.536 E1.55269
G1 X107.141 Y101.173 E1.58952
G1 X106.591 Y100.945 E1.62634
G1 X106.000000 Y100.868 E1.66319
G1 X105.409 Y100.945 E1.70001
G1 X104.859 Y101.173 E1.73684
G1 X104.386 Y101.536 E1.77368
G1 X104.023 Y102.009 E1.81051
G1 X103.795 Y102.559 E1.84734
G1 X103.718 Y103.15 E1.88417
G1 X103.795 Y103.741 E1.92101
G1 X104 Y104.236 E1.95413
M107
;WIPE_START
G1 X103.921 Y104.487 F7800
;WIPE_END
G92 E0
G1 E-2.000000 F2400
G1 X106.667 Y98.344 F7800
G1 E0.000000 F2400
;TYPE:Internal perimeter
M107
G1 F1800
G1 X106.72 Y98.338 E0.00329
G1 X107.391 Y98.06 E0.04819
G1 X107.967 Y97.617 E0.09308
G1 X108.41 Y97.041 E0.13799
G1 X108.688 Y96.37 E0.18288
G1 X108.782 Y95.65 E0.22779
G1 X108.688 Y94.93 E0.27268
G1 X108.41 Y94.259 E0.31758
G1 X107.967 Y93.683 E0.36248
G1 X107.391 Y93.24 E0.40738
G1 X106.72 Y92.962 E0.45228
G1 X106.000000 Y92.868 E0.49718
G1 X105.28 Y92.962 E0.54208
G1 X104.609 Y93.24 E0.58697
G1 X104.033 Y93.683 E0.63188
G1 X103.59 Y94.259 E0.67677
G1 X103.312 Y94.93 E0.72168
G1 X103.218 Y95.65 E0.76657
G1 X103.312 Y96.37 E0.81147
G1 X103.59 Y97.041 E0.85637
G1 X104.033 Y97.617 E0.90127
G1 X104.609 Y98.06 E0.94617
G1 X105.28 Y98.338 E0.99107
G1 X106 Y98.432 E1.03596
G1 X106.608 Y98.352 E1.07387
M107
G1 X106.591 Y97.855 F7800
;TYPE:External perimeter
M107
G1 F1800
G1 X107.141 Y97.627 E1.1107
G1 X107.614 Y97.264 E1.14753
G1 X107.977 Y96.791 E1.18436
G1 X108.205 Y96.241 E1.2212
G1 X108.282 Y95.65 E1.25803
G1 X108.205 Y95.059 E1.29486
G1 X107.977 Y94.509 E1.33169
G1 X107.614 Y94.036 E1.36852
G1 X107.141 Y93.673 E1.40536
G1 X106.591 Y93.445 E1.44219
G1 X106.000000 Y93.368 E1.47902
G1 X105.409 Y93.445 E1.51585
G1 X104.859 Y93.673 E1.55268
G1 X104.386 Y94.036 E1.58952
G1 X104.023 Y94.509 E1.62635
G1 X103.795 Y95.059 E1.66318
G1 X103.718 Y95.65 E1.70001
G1 X103.795 Y96.241 E1.73685
G1 X104.023 Y96.791 E1.77367
G1 X104.386 Y97.264 E1.81051
G1 X104.859 Y97.627 E1.84734
G1 X105.409 Y97.855 E1.88418
G1 X106.000000 Y97.932 E1.921
G1 X106.531 Y97.862 E1.95413
M107
;WIPE_START
G1 X106.753 Y98.004 F7800
;WIPE_END
G92 E0
G1 E-2.000000 F2400
G1 X108.46 Y93.51 F7800
G1 E0.000000 F2400
;TYPE:Internal perimeter
M107
G1 F1800
G1 X108.321 Y93.329 E0.0141
G1 X107.641 Y92.808 E0.06706
G1 X106.85 Y92.48 E0.12004
G1 X106.000000 Y92.368 E0.17299
G1 X105.15 Y92.48 E0.22597
G1 X104.359 Y92.808 E0.27893
G1 X103.679 Y93.329 E0.33189
G1 X103.000000 Y94.214 E0.40086
G1 X102.321 Y93.329 E0.46982
G1 X101.641 Y92.808 E0.52278
G1 X100.85 Y92.48 E0.57575
G1 X100.000000 Y92.368 E0.62872
G1 X99.15 Y92.48 E0.68168
G1 X98.359 Y92.808 E0.73465
G1 X97.679 Y93.329 E0.78761
G1 X97 Y94.214 E0.85658
G1 X96.321 Y93.329 E0.92554
G1 X95.641 Y92.808 E0.9785
G1 X94.85 Y92.48 E1.03147
G1 X94.000000 Y92.368 E1.08444
G1 X93.15 Y92.48 E1.1374
G1 X92.359 Y92.808 E1.19037
G1 X91.679 Y93.329 E1.24333
G1 X91.54 Y93.51 E1.25744
G1 X91.271 Y93.419 E1.27499
G1 X91.271 Y89.421 E1.52211
G1 X108.729 Y89.421 E2.60127
G1 X108.729 Y93.419 E2.84838
G1 X108.517 Y93.491 E2.86224
M107
G92 E0
G1 E-2.000000 F2400
G1 X109.224 Y88.926 F7800
G1 E0.000000 F2400
M107
G1 F1800
G1 X109.224 Y109.874 E1.29498
G1 X109.205 Y109.874 E1.29619
G1 X109.205 Y111.074 E1.37038
G1 X90.795 Y111.074 E2.50837
G1 X90.795 Y109.874 E2.58256
G1 X90.776 Y109.874 E2.58377
G1 X90.776 Y88.926 E3.87875
G1 X109.164 Y88.926 E5.01547
M107
G1 X109.72 Y88.43 F7800
;TYPE:External perimeter
M107
G1 F1800
G1 X109.72 Y110.37 E6.37173
G1 X109.7 Y110.37 E6.37295
G1 X109.7 Y111.57 E6.44713
G1 X90.3 Y111.57 E7.6464
G1 X90.3 Y110.37 E7.72057
G1 X90.28 Y110.37 E7.7218
G1 X90.28 Y88.43 E9.07805
G1 X109.66 Y88.43 E10.27605
M107
;WIPE_START
G1 X109.52 Y88.776 F7800
;WIPE_END
G92 E0
G1 E-2.000000 F2400
