%
;DT: 60
;tmpAdditive
;Printer name: University of Leeds CHAMP
;TIME:95
;Print time: 1m:35s
;Extruder 1 material used: 161mm
;Extruder 1 material name: 
;Extruder 1 filament diameter: 40.5mm
;Extruder 1 nozzle diameter: 0.4mm
;Extruder 1 offset x: 0mm
;Extruder 1 offset y: 0mm
;Extruder 1 offset z: 0mm
;Extruder 1 max temp: 0
;Extruder 2 material used: 161mm
;Extruder 2 material name: 
;Extruder 2 filament diameter: 1.75mm
;Extruder 2 nozzle diameter: 0.4mm
;Extruder 2 offset x: 0mm
;Extruder 2 offset y: 0mm
;Extruder 2 offset z: 0mm
;Extruder 2 max temp: 200
;Bed temp: 60
;Layer count: 11
;Width: 150mm
;Depth: 150mm
;Height: 300mm
;Center x: 0mm
;Center y: 0mm
;Center z: 0mm
;Count of bodies: 1
;Fusion version: 2.0.19725
;START GCODE
G58 G1 G90 X0 Y0 Z50 F1500
G21 G17 G64
G58 G0 Z20
G92 A0
G55
G92 B0
G58 G90 F540
;Polymer is used, heating polymer extruder and bed
M333
;END OF START GCODE
;--------------------------------
;Selected Profile: Ceramic and Polymer
;--------------------------------
;Selected Printer: University of Leeds, CHAMP
;--------------------------------
;Extruder Change to 1
;Extruder change to 1 - polymer
;POLYMER ON
G55
G92 B0
G0 G90 X0 Y0 Z20
M64 P1
;Done extruder change
;onSection Z: 10
;end of onSection
G0 X10 Y10 Z10 F6000
;--------------------------------
;Part 1
;Layer 1 of 11
N1
N2
;End of layer change block
;rapid-leaky
G0 X-9 Y6 Z0.6 F6000
G1 F3000 B5
;bead-raft
G1 X9 F788 B11.151
G1 Y3 B12.177
G1 X-9 B18.328
G1 Y0 B19.353
G1 X9 B25.505
G1 Y-3 B26.53
G1 X-9 B32.682
G1 Y-6 B33.707
G1 X9 B39.858
;bead-raft
G1 F3000 B34.858
;Layer 2 of 11
N3
N4
;End of layer change block
;rapid-leaky
G0 X8.4 Y6.668 Z1.2 F6000
G1 F3000 B39.858
;bead-raft
G1 X6.668 Y8.4 F900 B40.591
G1 X3.84 B41.438
G1 X8.4 Y3.84 B43.369
G1 Y1.011 B44.215
G1 X1.011 Y8.4 B47.343
G1 X-1.817 B48.19
G1 X8.4 Y-1.817 B52.515
G1 Y-4.646 B53.362
G1 X-4.646 Y8.4 B58.884
G1 X-7.474 B59.731
G1 X8.4 Y-7.474 B66.451
G1 Y-8.4 B66.728
G1 X6.498 B67.298
G1 X-8.4 Y6.498 B73.604
G1 Y3.669 B74.451
G1 X3.669 Y-8.4 B79.56
G1 X0.841 B80.407
G1 X-8.4 Y0.841 B84.319
G1 Y-1.988 B85.165
G1 X-1.988 Y-8.4 B87.88
G1 X-4.816 B88.727
G1 X-8.4 Y-4.816 B90.244
G1 Y-7.645 B91.09
G1 X-7.645 Y-8.4 B91.41
;bead-raft
G1 F3000 B86.41
;Layer 3 of 11
N5
N6
;End of layer change block
;rapid-leaky
G0 X-7.8 Y-8.4 Z1.8 F6000
G1 F3000 B91.41
;bead-raft
G1 Y8.4 F900 B96.439
G1 X-6.6 B96.798
G1 Y-8.4 B101.827
G1 X-5.4 B102.187
G1 Y8.4 B107.215
G1 X-4.2 B107.575
G1 Y-8.4 B112.604
G1 X-3 B112.963
G1 Y8.4 B117.992
G1 X-1.8 B118.351
G1 Y-8.4 B123.38
G1 X-0.6 B123.739
G1 Y8.4 B128.768
G1 X0.6 B129.127
G1 Y-8.4 B134.156
G1 X1.8 B134.515
G1 Y8.4 B139.544
G1 X3 B139.904
G1 Y-8.4 B144.932
G1 X4.2 B145.292
G1 Y8.4 B150.321
G1 X5.4 B150.68
G1 Y-8.4 B155.709
G1 X6.6 B156.068
G1 Y8.4 B161.097
G1 X7.8 B161.456
G1 Y-8.4 B166.485
;bead-raft
G1 F3000 B161.485
G1 B151.485
;Layer 4 of 11
N7
N8
;End of layer change block
;Extruder Change to 0
;Extruder change to 0 - ceramic
;POLYMER OFF
G55 G91 G1 Z20 F540
G90
M65 P1
;CERAMIC ON
G58
G92 A0
G0 G90 X0 Y0
G0 Z21.8 F540
;Purge nozzle
M14
;Done extruder change
;rapid-dry
;ignoring X and Y in the first movement after extruder change
G0 Z2.4 F6000
;extrusion is 0, skipping
;rapid-dry
G0 X-3.219 Y-3.219 F6000
;extrusion is 0, skipping
;bead-perimeter_inner
M15
G1 X3.219 F717 A0.005
G1 Y3.219 A0.009
G1 X-3.219 A0.014
G1 Y-3.219 A0.018
M16
;rapid-leaky
G0 X-4.315 Y-4.315 F6000
;bead-perimeter_outer
M15
G1 X4.315 F717 A0.024
G1 Y4.315 A0.03
G1 X-4.315 A0.036
G1 Y-4.315 A0.042
M16
;rapid-leaky
G0 X-1.041 Y-2.209 F6000
;bead-sparse_infill
M15
G1 X-2.209 Y-1.041 F717 A0.043
G1 Y0.896 A0.045
G1 X0.896 Y-2.209 A0.048
G1 X2.209 A0.049
M16
G1 Y-1.584
M15
G1 X-1.584 Y2.209 A0.053
G1 X0.353 A0.054
G1 X2.209 Y0.353 A0.056
M16
G1 F2100
;Layer 5 of 11
;CERAMIC_LAYER_END
;Dry and Photo
M225 #620=60 #622=2.4
;record end of layer data
M111 #622=2.4
IF [[#1005 EQ 0] AND [#1006 EQ 0]] GOTO 10
IF [#1006 EQ 0] GOTO 9
(PLANARISING AT 1.80)
(T2  D=3. CR=0. - ZMIN=1.81 - FLAT END MILL)
G90 G94 G91.1 G40 G49 G17
G21

(DEFECT CORRECTION - 2D ADAPTIVE 2)
M5
T2 M6
S9300 M3
G0 X-5.309 Y-8.533
Z22.8
Z12.8
Z2.41
G1 Z2.11 F1339.
X-5.307 Y-8.526 Z2.043
X-5.302 Y-8.505 Z1.98
X-5.293 Y-8.47 Z1.923
X-5.281 Y-8.424 Z1.875
X-5.267 Y-8.369 Z1.84
X-5.251 Y-8.307 Z1.818
X-5.235 Y-8.243 Z1.81
G3 X-5. Y-6.61 I-7.419 J1.9
G1 Y-6.46
X-5.125 Y-5.848
X-5.198 Y-5.229
X-5.241 Y-4.606
X-5.266 Y-3.983
X-5.28 Y-3.359
X-5.289 Y-2.735
X-5.294 Y-2.111
X-5.296 Y-1.487
X-5.299 Y-0.239
X-5.3 Y3.66
X-5.265 Y3.812
X-5.131 Y4.094
X-4.925 Y4.328
X-4.434 Y4.714
X-3.858 Y4.953
X-3.251 Y5.097
X-2.633 Y5.182
X-2.011 Y5.232
X-1.387 Y5.261
X-0.764 Y5.277
X-0.14 Y5.287
X0.484 Y5.292
X1.108 Y5.296
X2.356 Y5.299
X3.604 Y5.3
X3.758 Y5.273
X4.046 Y5.153
X4.288 Y4.957
X4.688 Y4.478
X4.937 Y3.906
X5.088 Y3.3
X5.176 Y2.683
X5.228 Y2.061
X5.259 Y1.438
X5.276 Y0.814
X5.286 Y0.19
X5.292 Y-0.434
X5.295 Y-1.058
X5.298 Y-2.305
X5.3 Y-3.553
X5.289 Y-3.709
X5.245 Y-3.859
X5.094 Y-4.132
X4.668 Y-4.587
X4.114 Y-4.875
X3.515 Y-5.051
X2.9 Y-5.155
X2.279 Y-5.216
X1.656 Y-5.251
X1.033 Y-5.272
X0.409 Y-5.284
X-0.215 Y-5.291
X-0.839 Y-5.295
X-2.087 Y-5.298
X-2.399 Y-5.299
X-2.7 Y-5.216
X-2.96 Y-5.043
X-3.395 Y-4.596
X-3.674 Y-4.038
X-3.846 Y-3.438
X-3.949 Y-2.823
X-4.011 Y-2.202
X-4.048 Y-1.579
X-4.069 Y-0.956
X-4.082 Y-0.332
X-4.09 Y0.292
X-4.094 Y0.916
X-4.096 Y1.54
X-4.098 Y2.164
X-4.018 Y2.465
X-3.866 Y2.738
X-3.461 Y3.212
X-2.929 Y3.538
X-2.342 Y3.75
X-1.733 Y3.885
X-1.115 Y3.969
X-0.493 Y4.02
X0.13 Y4.052
X0.754 Y4.071
X1.378 Y4.083
X2.002 Y4.09
X2.312 Y4.053
X2.601 Y3.936
X2.857 Y3.758
X3.299 Y3.317
X3.596 Y2.769
X3.788 Y2.175
X3.909 Y1.563
X3.984 Y0.943
X4.03 Y0.321
X4.058 Y-0.302
X4.074 Y-0.926
X4.085 Y-1.55
X4.091 Y-2.174
X4.01 Y-2.475
X3.858 Y-2.747
X3.452 Y-3.222
X2.919 Y-3.545
X2.331 Y-3.755
X1.722 Y-3.888
X1.103 Y-3.971
X0.482 Y-4.022
X-0.142 Y-4.053
X-0.765 Y-4.072
X-1.076 Y-4.042
X-1.367 Y-3.931
X-1.627 Y-3.757
X-2.074 Y-3.323
X-2.378 Y-2.777
X-2.575 Y-2.185
X-2.699 Y-1.574
X-2.777 Y-0.955
X-2.825 Y-0.333
X-2.855 Y0.29
X-2.873 Y0.914
X-2.779 Y1.212
X-2.624 Y1.482
X-2.221 Y1.959
X-1.693 Y2.291
X-1.109 Y2.513
X-0.502 Y2.656
X0.115 Y2.748
X0.736 Y2.806
X1.045 Y2.76
X1.334 Y2.642
X1.849 Y2.291
X2.218 Y1.787
X2.465 Y1.215
X2.626 Y0.612
X2.729 Y-0.004
X2.794 Y-0.624
X2.782 Y-0.936
X2.692 Y-1.234
X2.536 Y-1.505
X2.13 Y-1.978
X1.6 Y-2.307
X1.015 Y-2.524
X0.711 Y-2.594
X0.401 Y-2.634
X0.092 Y-2.59
X-0.194 Y-2.466
X-0.7 Y-2.102
X-1.056 Y-1.589
X-1.292 Y-1.011
X-1.368 Y-0.709
X-1.406 Y-0.399
X-1.354 Y-0.092
X-1.225 Y0.192
X-0.855 Y0.695
X-0.598 Y0.872
X-0.45 Y0.922
X-0.295 Y0.938
X0.015 Y0.901
X0.296 Y0.766
X0.54 Y0.572
X0.633 Y0.447
X0.665 Y0.375
G3 X1.234 Y0.484 I0.27 J0.131
G1 X1.239 Y0.55 Z1.818
X1.244 Y0.614 Z1.84
X1.248 Y0.67 Z1.875
X1.251 Y0.718 Z1.923
X1.254 Y0.753 Z1.98
X1.256 Y0.775 Z2.043
Y0.783 Z2.11
G0 Z22.8


T1 M6
;Setting A to end of layer 3
G92 A0
GOTO 8
N9
(PLANARISING AT 2.40)
(T2  D=3. CR=0. - ZMIN=2.4 - FLAT END MILL)
G90 G94 G91.1 G40 G49 G17
G21

(DEFECT CORRECTION - 2D ADAPTIVE 2)
M5
T2 M6
S9300 M3
G0 X-5.309 Y-8.533
Z22.8
Z12.8
Z3.
G1 Z2.7 F1339.
X-5.307 Y-8.526 Z2.633
X-5.302 Y-8.505 Z2.57
X-5.293 Y-8.47 Z2.513
X-5.281 Y-8.424 Z2.465
X-5.267 Y-8.369 Z2.43
X-5.251 Y-8.307 Z2.408
X-5.235 Y-8.243 Z2.4
G3 X-5. Y-6.61 I-7.419 J1.9
G1 Y-6.46
X-5.125 Y-5.848
X-5.198 Y-5.229
X-5.241 Y-4.606
X-5.266 Y-3.983
X-5.28 Y-3.359
X-5.289 Y-2.735
X-5.294 Y-2.111
X-5.296 Y-1.487
X-5.299 Y-0.239
X-5.3 Y3.66
X-5.265 Y3.812
X-5.131 Y4.094
X-4.925 Y4.328
X-4.434 Y4.714
X-3.858 Y4.953
X-3.251 Y5.097
X-2.633 Y5.182
X-2.011 Y5.232
X-1.387 Y5.261
X-0.764 Y5.277
X-0.14 Y5.287
X0.484 Y5.292
X1.108 Y5.296
X2.356 Y5.299
X3.604 Y5.3
X3.758 Y5.273
X4.046 Y5.153
X4.288 Y4.957
X4.688 Y4.478
X4.937 Y3.906
X5.088 Y3.3
X5.176 Y2.683
X5.228 Y2.061
X5.259 Y1.438
X5.276 Y0.814
X5.286 Y0.19
X5.292 Y-0.434
X5.295 Y-1.058
X5.298 Y-2.305
X5.3 Y-3.553
X5.289 Y-3.709
X5.245 Y-3.859
X5.094 Y-4.132
X4.668 Y-4.587
X4.114 Y-4.875
X3.515 Y-5.051
X2.9 Y-5.155
X2.279 Y-5.216
X1.656 Y-5.251
X1.033 Y-5.272
X0.409 Y-5.284
X-0.215 Y-5.291
X-0.839 Y-5.295
X-2.087 Y-5.298
X-2.399 Y-5.299
X-2.7 Y-5.216
X-2.96 Y-5.043
X-3.395 Y-4.596
X-3.674 Y-4.038
X-3.846 Y-3.438
X-3.949 Y-2.823
X-4.011 Y-2.202
X-4.048 Y-1.579
X-4.069 Y-0.956
X-4.082 Y-0.332
X-4.09 Y0.292
X-4.094 Y0.916
X-4.096 Y1.54
X-4.098 Y2.164
X-4.018 Y2.465
X-3.866 Y2.738
X-3.461 Y3.212
X-2.929 Y3.538
X-2.342 Y3.75
X-1.733 Y3.885
X-1.115 Y3.969
X-0.493 Y4.02
X0.13 Y4.052
X0.754 Y4.071
X1.378 Y4.083
X2.002 Y4.09
X2.312 Y4.053
X2.601 Y3.936
X2.857 Y3.758
X3.299 Y3.317
X3.596 Y2.769
X3.788 Y2.175
X3.909 Y1.563
X3.984 Y0.943
X4.03 Y0.321
X4.058 Y-0.302
X4.074 Y-0.926
X4.085 Y-1.55
X4.091 Y-2.174
X4.01 Y-2.475
X3.858 Y-2.747
X3.452 Y-3.222
X2.919 Y-3.545
X2.331 Y-3.755
X1.722 Y-3.888
X1.103 Y-3.971
X0.482 Y-4.022
X-0.142 Y-4.053
X-0.765 Y-4.072
X-1.076 Y-4.042
X-1.367 Y-3.931
X-1.627 Y-3.757
X-2.074 Y-3.323
X-2.378 Y-2.777
X-2.575 Y-2.185
X-2.699 Y-1.574
X-2.777 Y-0.955
X-2.825 Y-0.333
X-2.855 Y0.29
X-2.873 Y0.914
X-2.779 Y1.212
X-2.624 Y1.482
X-2.221 Y1.959
X-1.693 Y2.291
X-1.109 Y2.513
X-0.502 Y2.656
X0.115 Y2.748
X0.736 Y2.806
X1.045 Y2.76
X1.334 Y2.642
X1.849 Y2.291
X2.218 Y1.787
X2.465 Y1.215
X2.626 Y0.612
X2.729 Y-0.004
X2.794 Y-0.624
X2.782 Y-0.936
X2.692 Y-1.234
X2.536 Y-1.505
X2.13 Y-1.978
X1.6 Y-2.307
X1.015 Y-2.524
X0.711 Y-2.594
X0.401 Y-2.634
X0.092 Y-2.59
X-0.194 Y-2.466
X-0.7 Y-2.102
X-1.056 Y-1.589
X-1.292 Y-1.011
X-1.368 Y-0.709
X-1.406 Y-0.399
X-1.354 Y-0.092
X-1.225 Y0.192
X-0.855 Y0.695
X-0.598 Y0.872
X-0.45 Y0.922
X-0.295 Y0.938
X0.015 Y0.901
X0.296 Y0.766
X0.54 Y0.572
X0.633 Y0.447
X0.665 Y0.375
G3 X1.234 Y0.484 I0.27 J0.131
G1 X1.239 Y0.55 Z2.408
X1.244 Y0.614 Z2.43
X1.248 Y0.67 Z2.465
X1.251 Y0.718 Z2.513
X1.254 Y0.753 Z2.57
X1.256 Y0.775 Z2.633
Y0.783 Z2.7
G0 Z22.8


T1 M6
M25 #625=2.4
G58 G90
M499
N10
;Purge nozzle
M14
;End of layer change block
;rapid-leaky
G0 X-3.219 Y-3.219 Z3 F6000
M15
G1 F2100 A0.056
M16
;bead-perimeter_inner
M15
G1 X3.219 F717 A0.061
G1 Y3.219 A0.065
G1 X-3.219 A0.07
G1 Y-3.219 A0.074
M16
;rapid-leaky
G0 X-4.315 Y-4.315 F6000
;bead-perimeter_outer
M15
G1 X4.315 F717 A0.08
G1 Y4.315 A0.086
G1 X-4.315 A0.092
G1 Y-4.315 A0.099
M16
;rapid-leaky
G0 X0.353 Y-2.209 F6000
;bead-sparse_infill
M15
G1 X2.209 Y-0.353 F717 A0.1
G1 Y1.584 A0.102
G1 X-1.584 Y-2.209 A0.106
M16
G1 X-2.209
M15
G1 Y-0.896 A0.107
G1 X0.896 Y2.209 A0.11
G1 X-1.041 A0.111
G1 X-2.209 Y1.041 A0.112
M16
G1 F2100
;Layer 6 of 11
;CERAMIC_LAYER_END
;Dry and Photo
M225 #620=60 #622=3
;record end of layer data
M111 #622=3
IF [[#1005 EQ 0] AND [#1006 EQ 0]] GOTO 12
IF [#1006 EQ 0] GOTO 11
(PLANARISING AT 2.40)
(T2  D=3. CR=0. - ZMIN=2.4 - FLAT END MILL)
G90 G94 G91.1 G40 G49 G17
G21

(DEFECT CORRECTION - 2D ADAPTIVE 2)
M5
T2 M6
S9300 M3
G0 X-5.309 Y-8.533
Z22.8
Z12.8
Z3.
G1 Z2.7 F1339.
X-5.307 Y-8.526 Z2.633
X-5.302 Y-8.505 Z2.57
X-5.293 Y-8.47 Z2.513
X-5.281 Y-8.424 Z2.465
X-5.267 Y-8.369 Z2.43
X-5.251 Y-8.307 Z2.408
X-5.235 Y-8.243 Z2.4
G3 X-5. Y-6.61 I-7.419 J1.9
G1 Y-6.46
X-5.125 Y-5.848
X-5.198 Y-5.229
X-5.241 Y-4.606
X-5.266 Y-3.983
X-5.28 Y-3.359
X-5.289 Y-2.735
X-5.294 Y-2.111
X-5.296 Y-1.487
X-5.299 Y-0.239
X-5.3 Y3.66
X-5.265 Y3.812
X-5.131 Y4.094
X-4.925 Y4.328
X-4.434 Y4.714
X-3.858 Y4.953
X-3.251 Y5.097
X-2.633 Y5.182
X-2.011 Y5.232
X-1.387 Y5.261
X-0.764 Y5.277
X-0.14 Y5.287
X0.484 Y5.292
X1.108 Y5.296
X2.356 Y5.299
X3.604 Y5.3
X3.758 Y5.273
X4.046 Y5.153
X4.288 Y4.957
X4.688 Y4.478
X4.937 Y3.906
X5.088 Y3.3
X5.176 Y2.683
X5.228 Y2.061
X5.259 Y1.438
X5.276 Y0.814
X5.286 Y0.19
X5.292 Y-0.434
X5.295 Y-1.058
X5.298 Y-2.305
X5.3 Y-3.553
X5.289 Y-3.709
X5.245 Y-3.859
X5.094 Y-4.132
X4.668 Y-4.587
X4.114 Y-4.875
X3.515 Y-5.051
X2.9 Y-5.155
X2.279 Y-5.216
X1.656 Y-5.251
X1.033 Y-5.272
X0.409 Y-5.284
X-0.215 Y-5.291
X-0.839 Y-5.295
X-2.087 Y-5.298
X-2.399 Y-5.299
X-2.7 Y-5.216
X-2.96 Y-5.043
X-3.395 Y-4.596
X-3.674 Y-4.038
X-3.846 Y-3.438
X-3.949 Y-2.823
X-4.011 Y-2.202
X-4.048 Y-1.579
X-4.069 Y-0.956
X-4.082 Y-0.332
X-4.09 Y0.292
X-4.094 Y0.916
X-4.096 Y1.54
X-4.098 Y2.164
X-4.018 Y2.465
X-3.866 Y2.738
X-3.461 Y3.212
X-2.929 Y3.538
X-2.342 Y3.75
X-1.733 Y3.885
X-1.115 Y3.969
X-0.493 Y4.02
X0.13 Y4.052
X0.754 Y4.071
X1.378 Y4.083
X2.002 Y4.09
X2.312 Y4.053
X2.601 Y3.936
X2.857 Y3.758
X3.299 Y3.317
X3.596 Y2.769
X3.788 Y2.175
X3.909 Y1.563
X3.984 Y0.943
X4.03 Y0.321
X4.058 Y-0.302
X4.074 Y-0.926
X4.085 Y-1.55
X4.091 Y-2.174
X4.01 Y-2.475
X3.858 Y-2.747
X3.452 Y-3.222
X2.919 Y-3.545
X2.331 Y-3.755
X1.722 Y-3.888
X1.103 Y-3.971
X0.482 Y-4.022
X-0.142 Y-4.053
X-0.765 Y-4.072
X-1.076 Y-4.042
X-1.367 Y-3.931
X-1.627 Y-3.757
X-2.074 Y-3.323
X-2.378 Y-2.777
X-2.575 Y-2.185
X-2.699 Y-1.574
X-2.777 Y-0.955
X-2.825 Y-0.333
X-2.855 Y0.29
X-2.873 Y0.914
X-2.779 Y1.212
X-2.624 Y1.482
X-2.221 Y1.959
X-1.693 Y2.291
X-1.109 Y2.513
X-0.502 Y2.656
X0.115 Y2.748
X0.736 Y2.806
X1.045 Y2.76
X1.334 Y2.642
X1.849 Y2.291
X2.218 Y1.787
X2.465 Y1.215
X2.626 Y0.612
X2.729 Y-0.004
X2.794 Y-0.624
X2.782 Y-0.936
X2.692 Y-1.234
X2.536 Y-1.505
X2.13 Y-1.978
X1.6 Y-2.307
X1.015 Y-2.524
X0.711 Y-2.594
X0.401 Y-2.634
X0.092 Y-2.59
X-0.194 Y-2.466
X-0.7 Y-2.102
X-1.056 Y-1.589
X-1.292 Y-1.011
X-1.368 Y-0.709
X-1.406 Y-0.399
X-1.354 Y-0.092
X-1.225 Y0.192
X-0.855 Y0.695
X-0.598 Y0.872
X-0.45 Y0.922
X-0.295 Y0.938
X0.015 Y0.901
X0.296 Y0.766
X0.54 Y0.572
X0.633 Y0.447
X0.665 Y0.375
G3 X1.234 Y0.484 I0.27 J0.131
G1 X1.239 Y0.55 Z2.408
X1.244 Y0.614 Z2.43
X1.248 Y0.67 Z2.465
X1.251 Y0.718 Z2.513
X1.254 Y0.753 Z2.57
X1.256 Y0.775 Z2.633
Y0.783 Z2.7
G0 Z22.8


T1 M6
;Setting A to end of layer 4
G92 A0.056
GOTO 10
N11
(PLANARISING AT 3.00)
(T2  D=3. CR=0. - ZMIN=3. - FLAT END MILL)
G90 G94 G91.1 G40 G49 G17
G21

(DEFECT CORRECTION - 2D ADAPTIVE 2)
M5
T2 M6
S9300 M3
G0 X-5.309 Y-8.533
Z22.8
Z12.8
Z3.6
G1 Z3.3 F1339.
X-5.307 Y-8.526 Z3.233
X-5.302 Y-8.505 Z3.17
X-5.293 Y-8.47 Z3.113
X-5.281 Y-8.424 Z3.065
X-5.267 Y-8.369 Z3.03
X-5.251 Y-8.307 Z3.008
X-5.235 Y-8.243 Z3.
G3 X-5. Y-6.61 I-7.419 J1.9
G1 Y-6.46
X-5.125 Y-5.848
X-5.198 Y-5.229
X-5.241 Y-4.606
X-5.266 Y-3.983
X-5.28 Y-3.359
X-5.289 Y-2.735
X-5.294 Y-2.111
X-5.296 Y-1.487
X-5.299 Y-0.239
X-5.3 Y3.66
X-5.265 Y3.812
X-5.131 Y4.094
X-4.925 Y4.328
X-4.434 Y4.714
X-3.858 Y4.953
X-3.251 Y5.097
X-2.633 Y5.182
X-2.011 Y5.232
X-1.387 Y5.261
X-0.764 Y5.277
X-0.14 Y5.287
X0.484 Y5.292
X1.108 Y5.296
X2.356 Y5.299
X3.604 Y5.3
X3.758 Y5.273
X4.046 Y5.153
X4.288 Y4.957
X4.688 Y4.478
X4.937 Y3.906
X5.088 Y3.3
X5.176 Y2.683
X5.228 Y2.061
X5.259 Y1.438
X5.276 Y0.814
X5.286 Y0.19
X5.292 Y-0.434
X5.295 Y-1.058
X5.298 Y-2.305
X5.3 Y-3.553
X5.289 Y-3.709
X5.245 Y-3.859
X5.094 Y-4.132
X4.668 Y-4.587
X4.114 Y-4.875
X3.515 Y-5.051
X2.9 Y-5.155
X2.279 Y-5.216
X1.656 Y-5.251
X1.033 Y-5.272
X0.409 Y-5.284
X-0.215 Y-5.291
X-0.839 Y-5.295
X-2.087 Y-5.298
X-2.399 Y-5.299
X-2.7 Y-5.216
X-2.96 Y-5.043
X-3.395 Y-4.596
X-3.674 Y-4.038
X-3.846 Y-3.438
X-3.949 Y-2.823
X-4.011 Y-2.202
X-4.048 Y-1.579
X-4.069 Y-0.956
X-4.082 Y-0.332
X-4.09 Y0.292
X-4.094 Y0.916
X-4.096 Y1.54
X-4.098 Y2.164
X-4.018 Y2.465
X-3.866 Y2.738
X-3.461 Y3.212
X-2.929 Y3.538
X-2.342 Y3.75
X-1.733 Y3.885
X-1.115 Y3.969
X-0.493 Y4.02
X0.13 Y4.052
X0.754 Y4.071
X1.378 Y4.083
X2.002 Y4.09
X2.312 Y4.053
X2.601 Y3.936
X2.857 Y3.758
X3.299 Y3.317
X3.596 Y2.769
X3.788 Y2.175
X3.909 Y1.563
X3.984 Y0.943
X4.03 Y0.321
X4.058 Y-0.302
X4.074 Y-0.926
X4.085 Y-1.55
X4.091 Y-2.174
X4.01 Y-2.475
X3.858 Y-2.747
X3.452 Y-3.222
X2.919 Y-3.545
X2.331 Y-3.755
X1.722 Y-3.888
X1.103 Y-3.971
X0.482 Y-4.022
X-0.142 Y-4.053
X-0.765 Y-4.072
X-1.076 Y-4.042
X-1.367 Y-3.931
X-1.627 Y-3.757
X-2.074 Y-3.323
X-2.378 Y-2.777
X-2.575 Y-2.185
X-2.699 Y-1.574
X-2.777 Y-0.955
X-2.825 Y-0.333
X-2.855 Y0.29
X-2.873 Y0.914
X-2.779 Y1.212
X-2.624 Y1.482
X-2.221 Y1.959
X-1.693 Y2.291
X-1.109 Y2.513
X-0.502 Y2.656
X0.115 Y2.748
X0.736 Y2.806
X1.045 Y2.76
X1.334 Y2.642
X1.849 Y2.291
X2.218 Y1.787
X2.465 Y1.215
X2.626 Y0.612
X2.729 Y-0.004
X2.794 Y-0.624
X2.782 Y-0.936
X2.692 Y-1.234
X2.536 Y-1.505
X2.13 Y-1.978
X1.6 Y-2.307
X1.015 Y-2.524
X0.711 Y-2.594
X0.401 Y-2.634
X0.092 Y-2.59
X-0.194 Y-2.466
X-0.7 Y-2.102
X-1.056 Y-1.589
X-1.292 Y-1.011
X-1.368 Y-0.709
X-1.406 Y-0.399
X-1.354 Y-0.092
X-1.225 Y0.192
X-0.855 Y0.695
X-0.598 Y0.872
X-0.45 Y0.922
X-0.295 Y0.938
X0.015 Y0.901
X0.296 Y0.766
X0.54 Y0.572
X0.633 Y0.447
X0.665 Y0.375
G3 X1.234 Y0.484 I0.27 J0.131
G1 X1.239 Y0.55 Z3.008
X1.244 Y0.614 Z3.03
X1.248 Y0.67 Z3.065
X1.251 Y0.718 Z3.113
X1.254 Y0.753 Z3.17
X1.256 Y0.775 Z3.233
Y0.783 Z3.3
G0 Z22.8


T1 M6
M25 #625=3
G58 G90
M499
N12
;Purge nozzle
M14
;End of layer change block
;rapid-leaky
G0 X-3.219 Y3.219 Z3.6 F6000
M15
G1 F2100 A0.112
M16
;bead-perimeter_inner
M15
G1 Y-3.219 F717 A0.117
G1 X3.219 A0.122
G1 Y3.219 A0.126
G1 X-3.219 A0.131
M16
;rapid-leaky
G0 X-4.315 Y4.315 F6000
;bead-perimeter_outer
M15
G1 Y-4.315 F717 A0.137
G1 X4.315 A0.143
G1 Y4.315 A0.149
G1 X-4.315 A0.155
M16
;rapid-leaky
G0 X-1.041 Y-2.209 F6000
;bead-sparse_infill
M15
G1 X-2.209 Y-1.041 F717 A0.156
G1 Y0.896 A0.157
G1 X0.896 Y-2.209 A0.16
G1 X2.209 A0.161
G1 Y-1.584 A0.162
G1 X-1.584 Y2.209 A0.165
G1 X0.353 A0.167
G1 X2.209 Y0.353 A0.169
M16
G1 F2100
;Layer 7 of 11
;CERAMIC_LAYER_END
;Dry and Photo
M225 #620=60 #622=3.6
;record end of layer data
M111 #622=3.6
IF [[#1005 EQ 0] AND [#1006 EQ 0]] GOTO 14
IF [#1006 EQ 0] GOTO 13
(PLANARISING AT 3.00)
(T2  D=3. CR=0. - ZMIN=3. - FLAT END MILL)
G90 G94 G91.1 G40 G49 G17
G21

(DEFECT CORRECTION - 2D ADAPTIVE 2)
M5
T2 M6
S9300 M3
G0 X-5.309 Y-8.533
Z22.8
Z12.8
Z3.6
G1 Z3.3 F1339.
X-5.307 Y-8.526 Z3.233
X-5.302 Y-8.505 Z3.17
X-5.293 Y-8.47 Z3.113
X-5.281 Y-8.424 Z3.065
X-5.267 Y-8.369 Z3.03
X-5.251 Y-8.307 Z3.008
X-5.235 Y-8.243 Z3.
G3 X-5. Y-6.61 I-7.419 J1.9
G1 Y-6.46
X-5.125 Y-5.848
X-5.198 Y-5.229
X-5.241 Y-4.606
X-5.266 Y-3.983
X-5.28 Y-3.359
X-5.289 Y-2.735
X-5.294 Y-2.111
X-5.296 Y-1.487
X-5.299 Y-0.239
X-5.3 Y3.66
X-5.265 Y3.812
X-5.131 Y4.094
X-4.925 Y4.328
X-4.434 Y4.714
X-3.858 Y4.953
X-3.251 Y5.097
X-2.633 Y5.182
X-2.011 Y5.232
X-1.387 Y5.261
X-0.764 Y5.277
X-0.14 Y5.287
X0.484 Y5.292
X1.108 Y5.296
X2.356 Y5.299
X3.604 Y5.3
X3.758 Y5.273
X4.046 Y5.153
X4.288 Y4.957
X4.688 Y4.478
X4.937 Y3.906
X5.088 Y3.3
X5.176 Y2.683
X5.228 Y2.061
X5.259 Y1.438
X5.276 Y0.814
X5.286 Y0.19
X5.292 Y-0.434
X5.295 Y-1.058
X5.298 Y-2.305
X5.3 Y-3.553
X5.289 Y-3.709
X5.245 Y-3.859
X5.094 Y-4.132
X4.668 Y-4.587
X4.114 Y-4.875
X3.515 Y-5.051
X2.9 Y-5.155
X2.279 Y-5.216
X1.656 Y-5.251
X1.033 Y-5.272
X0.409 Y-5.284
X-0.215 Y-5.291
X-0.839 Y-5.295
X-2.087 Y-5.298
X-2.399 Y-5.299
X-2.7 Y-5.216
X-2.96 Y-5.043
X-3.395 Y-4.596
X-3.674 Y-4.038
X-3.846 Y-3.438
X-3.949 Y-2.823
X-4.011 Y-2.202
X-4.048 Y-1.579
X-4.069 Y-0.956
X-4.082 Y-0.332
X-4.09 Y0.292
X-4.094 Y0.916
X-4.096 Y1.54
X-4.098 Y2.164
X-4.018 Y2.465
X-3.866 Y2.738
X-3.461 Y3.212
X-2.929 Y3.538
X-2.342 Y3.75
X-1.733 Y3.885
X-1.115 Y3.969
X-0.493 Y4.02
X0.13 Y4.052
X0.754 Y4.071
X1.378 Y4.083
X2.002 Y4.09
X2.312 Y4.053
X2.601 Y3.936
X2.857 Y3.758
X3.299 Y3.317
X3.596 Y2.769
X3.788 Y2.175
X3.909 Y1.563
X3.984 Y0.943
X4.03 Y0.321
X4.058 Y-0.302
X4.074 Y-0.926
X4.085 Y-1.55
X4.091 Y-2.174
X4.01 Y-2.475
X3.858 Y-2.747
X3.452 Y-3.222
X2.919 Y-3.545
X2.331 Y-3.755
X1.722 Y-3.888
X1.103 Y-3.971
X0.482 Y-4.022
X-0.142 Y-4.053
X-0.765 Y-4.072
X-1.076 Y-4.042
X-1.367 Y-3.931
X-1.627 Y-3.757
X-2.074 Y-3.323
X-2.378 Y-2.777
X-2.575 Y-2.185
X-2.699 Y-1.574
X-2.777 Y-0.955
X-2.825 Y-0.333
X-2.855 Y0.29
X-2.873 Y0.914
X-2.779 Y1.212
X-2.624 Y1.482
X-2.221 Y1.959
X-1.693 Y2.291
X-1.109 Y2.513
X-0.502 Y2.656
X0.115 Y2.748
X0.736 Y2.806
X1.045 Y2.76
X1.334 Y2.642
X1.849 Y2.291
X2.218 Y1.787
X2.465 Y1.215
X2.626 Y0.612
X2.729 Y-0.004
X2.794 Y-0.624
X2.782 Y-0.936
X2.692 Y-1.234
X2.536 Y-1.505
X2.13 Y-1.978
X1.6 Y-2.307
X1.015 Y-2.524
X0.711 Y-2.594
X0.401 Y-2.634
X0.092 Y-2.59
X-0.194 Y-2.466
X-0.7 Y-2.102
X-1.056 Y-1.589
X-1.292 Y-1.011
X-1.368 Y-0.709
X-1.406 Y-0.399
X-1.354 Y-0.092
X-1.225 Y0.192
X-0.855 Y0.695
X-0.598 Y0.872
X-0.45 Y0.922
X-0.295 Y0.938
X0.015 Y0.901
X0.296 Y0.766
X0.54 Y0.572
X0.633 Y0.447
X0.665 Y0.375
G3 X1.234 Y0.484 I0.27 J0.131
G1 X1.239 Y0.55 Z3.008
X1.244 Y0.614 Z3.03
X1.248 Y0.67 Z3.065
X1.251 Y0.718 Z3.113
X1.254 Y0.753 Z3.17
X1.256 Y0.775 Z3.233
Y0.783 Z3.3
G0 Z22.8


T1 M6
;Setting A to end of layer 5
G92 A0.112
GOTO 12
N13
(PLANARISING AT 3.60)
(T2  D=3. CR=0. - ZMIN=3.6 - FLAT END MILL)
G90 G94 G91.1 G40 G49 G17
G21

(DEFECT CORRECTION - 2D ADAPTIVE 2)
M5
T2 M6
S9300 M3
G0 X-5.309 Y-8.533
Z22.8
Z12.8
Z4.2
G1 Z3.9 F1339.
X-5.307 Y-8.526 Z3.833
X-5.302 Y-8.505 Z3.77
X-5.293 Y-8.47 Z3.713
X-5.281 Y-8.424 Z3.665
X-5.267 Y-8.369 Z3.63
X-5.251 Y-8.307 Z3.608
X-5.235 Y-8.243 Z3.6
G3 X-5. Y-6.61 I-7.419 J1.9
G1 Y-6.46
X-5.125 Y-5.848
X-5.198 Y-5.229
X-5.241 Y-4.606
X-5.266 Y-3.983
X-5.28 Y-3.359
X-5.289 Y-2.735
X-5.294 Y-2.111
X-5.296 Y-1.487
X-5.299 Y-0.239
X-5.3 Y3.66
X-5.265 Y3.812
X-5.131 Y4.094
X-4.925 Y4.328
X-4.434 Y4.714
X-3.858 Y4.953
X-3.251 Y5.097
X-2.633 Y5.182
X-2.011 Y5.232
X-1.387 Y5.261
X-0.764 Y5.277
X-0.14 Y5.287
X0.484 Y5.292
X1.108 Y5.296
X2.356 Y5.299
X3.604 Y5.3
X3.758 Y5.273
X4.046 Y5.153
X4.288 Y4.957
X4.688 Y4.478
X4.937 Y3.906
X5.088 Y3.3
X5.176 Y2.683
X5.228 Y2.061
X5.259 Y1.438
X5.276 Y0.814
X5.286 Y0.19
X5.292 Y-0.434
X5.295 Y-1.058
X5.298 Y-2.305
X5.3 Y-3.553
X5.289 Y-3.709
X5.245 Y-3.859
X5.094 Y-4.132
X4.668 Y-4.587
X4.114 Y-4.875
X3.515 Y-5.051
X2.9 Y-5.155
X2.279 Y-5.216
X1.656 Y-5.251
X1.033 Y-5.272
X0.409 Y-5.284
X-0.215 Y-5.291
X-0.839 Y-5.295
X-2.087 Y-5.298
X-2.399 Y-5.299
X-2.7 Y-5.216
X-2.96 Y-5.043
X-3.395 Y-4.596
X-3.674 Y-4.038
X-3.846 Y-3.438
X-3.949 Y-2.823
X-4.011 Y-2.202
X-4.048 Y-1.579
X-4.069 Y-0.956
X-4.082 Y-0.332
X-4.09 Y0.292
X-4.094 Y0.916
X-4.096 Y1.54
X-4.098 Y2.164
X-4.018 Y2.465
X-3.866 Y2.738
X-3.461 Y3.212
X-2.929 Y3.538
X-2.342 Y3.75
X-1.733 Y3.885
X-1.115 Y3.969
X-0.493 Y4.02
X0.13 Y4.052
X0.754 Y4.071
X1.378 Y4.083
X2.002 Y4.09
X2.312 Y4.053
X2.601 Y3.936
X2.857 Y3.758
X3.299 Y3.317
X3.596 Y2.769
X3.788 Y2.175
X3.909 Y1.563
X3.984 Y0.943
X4.03 Y0.321
X4.058 Y-0.302
X4.074 Y-0.926
X4.085 Y-1.55
X4.091 Y-2.174
X4.01 Y-2.475
X3.858 Y-2.747
X3.452 Y-3.222
X2.919 Y-3.545
X2.331 Y-3.755
X1.722 Y-3.888
X1.103 Y-3.971
X0.482 Y-4.022
X-0.142 Y-4.053
X-0.765 Y-4.072
X-1.076 Y-4.042
X-1.367 Y-3.931
X-1.627 Y-3.757
X-2.074 Y-3.323
X-2.378 Y-2.777
X-2.575 Y-2.185
X-2.699 Y-1.574
X-2.777 Y-0.955
X-2.825 Y-0.333
X-2.855 Y0.29
X-2.873 Y0.914
X-2.779 Y1.212
X-2.624 Y1.482
X-2.221 Y1.959
X-1.693 Y2.291
X-1.109 Y2.513
X-0.502 Y2.656
X0.115 Y2.748
X0.736 Y2.806
X1.045 Y2.76
X1.334 Y2.642
X1.849 Y2.291
X2.218 Y1.787
X2.465 Y1.215
X2.626 Y0.612
X2.729 Y-0.004
X2.794 Y-0.624
X2.782 Y-0.936
X2.692 Y-1.234
X2.536 Y-1.505
X2.13 Y-1.978
X1.6 Y-2.307
X1.015 Y-2.524
X0.711 Y-2.594
X0.401 Y-2.634
X0.092 Y-2.59
X-0.194 Y-2.466
X-0.7 Y-2.102
X-1.056 Y-1.589
X-1.292 Y-1.011
X-1.368 Y-0.709
X-1.406 Y-0.399
X-1.354 Y-0.092
X-1.225 Y0.192
X-0.855 Y0.695
X-0.598 Y0.872
X-0.45 Y0.922
X-0.295 Y0.938
X0.015 Y0.901
X0.296 Y0.766
X0.54 Y0.572
X0.633 Y0.447
X0.665 Y0.375
G3 X1.234 Y0.484 I0.27 J0.131
G1 X1.239 Y0.55 Z3.608
X1.244 Y0.614 Z3.63
X1.248 Y0.67 Z3.665
X1.251 Y0.718 Z3.713
X1.254 Y0.753 Z3.77
X1.256 Y0.775 Z3.833
Y0.783 Z3.9
G0 Z22.8


T1 M6
M25 #625=3.6
G58 G90
M499
N14
;Purge nozzle
M14
;End of layer change block
;rapid-leaky
G0 X-3.219 Y3.219 Z4.2 F6000
M15
G1 F2100 A0.169
M16
;bead-perimeter_inner
M15
G1 Y-3.219 F717 A0.173
G1 X3.219 A0.178
G1 Y3.219 A0.182
G1 X-3.219 A0.187
M16
;rapid-leaky
G0 X-4.315 Y4.315 F6000
;bead-perimeter_outer
M15
G1 Y-4.315 F717 A0.193
G1 X4.315 A0.199
G1 Y4.315 A0.205
G1 X-4.315 A0.211
M16
;rapid-leaky
G0 X-2.209 Y1.041 F6000
;bead-sparse_infill
M15
G1 X-1.041 Y2.209 F717 A0.212
G1 X0.896 A0.214
G1 X-2.209 Y-0.896 A0.217
G1 Y-2.209 A0.218
M16
G1 X-1.584
M15
G1 X2.209 Y1.584 A0.222
G1 Y-0.353 A0.223
G1 X0.353 Y-2.209 A0.225
M16
G1 F2100
;Layer 8 of 11
;CERAMIC_LAYER_END
;Dry and Photo
M225 #620=60 #622=4.2
;record end of layer data
M111 #622=4.2
IF [[#1005 EQ 0] AND [#1006 EQ 0]] GOTO 16
IF [#1006 EQ 0] GOTO 15
(PLANARISING AT 3.60)
(T2  D=3. CR=0. - ZMIN=3.6 - FLAT END MILL)
G90 G94 G91.1 G40 G49 G17
G21

(DEFECT CORRECTION - 2D ADAPTIVE 2)
M5
T2 M6
S9300 M3
G0 X-5.309 Y-8.533
Z22.8
Z12.8
Z4.2
G1 Z3.9 F1339.
X-5.307 Y-8.526 Z3.833
X-5.302 Y-8.505 Z3.77
X-5.293 Y-8.47 Z3.713
X-5.281 Y-8.424 Z3.665
X-5.267 Y-8.369 Z3.63
X-5.251 Y-8.307 Z3.608
X-5.235 Y-8.243 Z3.6
G3 X-5. Y-6.61 I-7.419 J1.9
G1 Y-6.46
X-5.125 Y-5.848
X-5.198 Y-5.229
X-5.241 Y-4.606
X-5.266 Y-3.983
X-5.28 Y-3.359
X-5.289 Y-2.735
X-5.294 Y-2.111
X-5.296 Y-1.487
X-5.299 Y-0.239
X-5.3 Y3.66
X-5.265 Y3.812
X-5.131 Y4.094
X-4.925 Y4.328
X-4.434 Y4.714
X-3.858 Y4.953
X-3.251 Y5.097
X-2.633 Y5.182
X-2.011 Y5.232
X-1.387 Y5.261
X-0.764 Y5.277
X-0.14 Y5.287
X0.484 Y5.292
X1.108 Y5.296
X2.356 Y5.299
X3.604 Y5.3
X3.758 Y5.273
X4.046 Y5.153
X4.288 Y4.957
X4.688 Y4.478
X4.937 Y3.906
X5.088 Y3.3
X5.176 Y2.683
X5.228 Y2.061
X5.259 Y1.438
X5.276 Y0.814
X5.286 Y0.19
X5.292 Y-0.434
X5.295 Y-1.058
X5.298 Y-2.305
X5.3 Y-3.553
X5.289 Y-3.709
X5.245 Y-3.859
X5.094 Y-4.132
X4.668 Y-4.587
X4.114 Y-4.875
X3.515 Y-5.051
X2.9 Y-5.155
X2.279 Y-5.216
X1.656 Y-5.251
X1.033 Y-5.272
X0.409 Y-5.284
X-0.215 Y-5.291
X-0.839 Y-5.295
X-2.087 Y-5.298
X-2.399 Y-5.299
X-2.7 Y-5.216
X-2.96 Y-5.043
X-3.395 Y-4.596
X-3.674 Y-4.038
X-3.846 Y-3.438
X-3.949 Y-2.823
X-4.011 Y-2.202
X-4.048 Y-1.579
X-4.069 Y-0.956
X-4.082 Y-0.332
X-4.09 Y0.292
X-4.094 Y0.916
X-4.096 Y1.54
X-4.098 Y2.164
X-4.018 Y2.465
X-3.866 Y2.738
X-3.461 Y3.212
X-2.929 Y3.538
X-2.342 Y3.75
X-1.733 Y3.885
X-1.115 Y3.969
X-0.493 Y4.02
X0.13 Y4.052
X0.754 Y4.071
X1.378 Y4.083
X2.002 Y4.09
X2.312 Y4.053
X2.601 Y3.936
X2.857 Y3.758
X3.299 Y3.317
X3.596 Y2.769
X3.788 Y2.175
X3.909 Y1.563
X3.984 Y0.943
X4.03 Y0.321
X4.058 Y-0.302
X4.074 Y-0.926
X4.085 Y-1.55
X4.091 Y-2.174
X4.01 Y-2.475
X3.858 Y-2.747
X3.452 Y-3.222
X2.919 Y-3.545
X2.331 Y-3.755
X1.722 Y-3.888
X1.103 Y-3.971
X0.482 Y-4.022
X-0.142 Y-4.053
X-0.765 Y-4.072
X-1.076 Y-4.042
X-1.367 Y-3.931
X-1.627 Y-3.757
X-2.074 Y-3.323
X-2.378 Y-2.777
X-2.575 Y-2.185
X-2.699 Y-1.574
X-2.777 Y-0.955
X-2.825 Y-0.333
X-2.855 Y0.29
X-2.873 Y0.914
X-2.779 Y1.212
X-2.624 Y1.482
X-2.221 Y1.959
X-1.693 Y2.291
X-1.109 Y2.513
X-0.502 Y2.656
X0.115 Y2.748
X0.736 Y2.806
X1.045 Y2.76
X1.334 Y2.642
X1.849 Y2.291
X2.218 Y1.787
X2.465 Y1.215
X2.626 Y0.612
X2.729 Y-0.004
X2.794 Y-0.624
X2.782 Y-0.936
X2.692 Y-1.234
X2.536 Y-1.505
X2.13 Y-1.978
X1.6 Y-2.307
X1.015 Y-2.524
X0.711 Y-2.594
X0.401 Y-2.634
X0.092 Y-2.59
X-0.194 Y-2.466
X-0.7 Y-2.102
X-1.056 Y-1.589
X-1.292 Y-1.011
X-1.368 Y-0.709
X-1.406 Y-0.399
X-1.354 Y-0.092
X-1.225 Y0.192
X-0.855 Y0.695
X-0.598 Y0.872
X-0.45 Y0.922
X-0.295 Y0.938
X0.015 Y0.901
X0.296 Y0.766
X0.54 Y0.572
X0.633 Y0.447
X0.665 Y0.375
G3 X1.234 Y0.484 I0.27 J0.131
G1 X1.239 Y0.55 Z3.608
X1.244 Y0.614 Z3.63
X1.248 Y0.67 Z3.665
X1.251 Y0.718 Z3.713
X1.254 Y0.753 Z3.77
X1.256 Y0.775 Z3.833
Y0.783 Z3.9
G0 Z22.8


T1 M6
;Setting A to end of layer 6
G92 A0.169
GOTO 14
N15
(PLANARISING AT 4.20)
(T2  D=3. CR=0. - ZMIN=4.2 - FLAT END MILL)
G90 G94 G91.1 G40 G49 G17
G21

(DEFECT CORRECTION - 2D ADAPTIVE 2)
M5
T2 M6
S9300 M3
G0 X-5.309 Y-8.533
Z22.8
Z12.8
Z4.8
G1 Z4.5 F1339.
X-5.307 Y-8.526 Z4.433
X-5.302 Y-8.505 Z4.37
X-5.293 Y-8.47 Z4.313
X-5.281 Y-8.424 Z4.265
X-5.267 Y-8.369 Z4.23
X-5.251 Y-8.307 Z4.208
X-5.235 Y-8.243 Z4.2
G3 X-5. Y-6.61 I-7.419 J1.9
G1 Y-6.46
X-5.125 Y-5.848
X-5.198 Y-5.229
X-5.241 Y-4.606
X-5.266 Y-3.983
X-5.28 Y-3.359
X-5.289 Y-2.735
X-5.294 Y-2.111
X-5.296 Y-1.487
X-5.299 Y-0.239
X-5.3 Y3.66
X-5.265 Y3.812
X-5.131 Y4.094
X-4.925 Y4.328
X-4.434 Y4.714
X-3.858 Y4.953
X-3.251 Y5.097
X-2.633 Y5.182
X-2.011 Y5.232
X-1.387 Y5.261
X-0.764 Y5.277
X-0.14 Y5.287
X0.484 Y5.292
X1.108 Y5.296
X2.356 Y5.299
X3.604 Y5.3
X3.758 Y5.273
X4.046 Y5.153
X4.288 Y4.957
X4.688 Y4.478
X4.937 Y3.906
X5.088 Y3.3
X5.176 Y2.683
X5.228 Y2.061
X5.259 Y1.438
X5.276 Y0.814
X5.286 Y0.19
X5.292 Y-0.434
X5.295 Y-1.058
X5.298 Y-2.305
X5.3 Y-3.553
X5.289 Y-3.709
X5.245 Y-3.859
X5.094 Y-4.132
X4.668 Y-4.587
X4.114 Y-4.875
X3.515 Y-5.051
X2.9 Y-5.155
X2.279 Y-5.216
X1.656 Y-5.251
X1.033 Y-5.272
X0.409 Y-5.284
X-0.215 Y-5.291
X-0.839 Y-5.295
X-2.087 Y-5.298
X-2.399 Y-5.299
X-2.7 Y-5.216
X-2.96 Y-5.043
X-3.395 Y-4.596
X-3.674 Y-4.038
X-3.846 Y-3.438
X-3.949 Y-2.823
X-4.011 Y-2.202
X-4.048 Y-1.579
X-4.069 Y-0.956
X-4.082 Y-0.332
X-4.09 Y0.292
X-4.094 Y0.916
X-4.096 Y1.54
X-4.098 Y2.164
X-4.018 Y2.465
X-3.866 Y2.738
X-3.461 Y3.212
X-2.929 Y3.538
X-2.342 Y3.75
X-1.733 Y3.885
X-1.115 Y3.969
X-0.493 Y4.02
X0.13 Y4.052
X0.754 Y4.071
X1.378 Y4.083
X2.002 Y4.09
X2.312 Y4.053
X2.601 Y3.936
X2.857 Y3.758
X3.299 Y3.317
X3.596 Y2.769
X3.788 Y2.175
X3.909 Y1.563
X3.984 Y0.943
X4.03 Y0.321
X4.058 Y-0.302
X4.074 Y-0.926
X4.085 Y-1.55
X4.091 Y-2.174
X4.01 Y-2.475
X3.858 Y-2.747
X3.452 Y-3.222
X2.919 Y-3.545
X2.331 Y-3.755
X1.722 Y-3.888
X1.103 Y-3.971
X0.482 Y-4.022
X-0.142 Y-4.053
X-0.765 Y-4.072
X-1.076 Y-4.042
X-1.367 Y-3.931
X-1.627 Y-3.757
X-2.074 Y-3.323
X-2.378 Y-2.777
X-2.575 Y-2.185
X-2.699 Y-1.574
X-2.777 Y-0.955
X-2.825 Y-0.333
X-2.855 Y0.29
X-2.873 Y0.914
X-2.779 Y1.212
X-2.624 Y1.482
X-2.221 Y1.959
X-1.693 Y2.291
X-1.109 Y2.513
X-0.502 Y2.656
X0.115 Y2.748
X0.736 Y2.806
X1.045 Y2.76
X1.334 Y2.642
X1.849 Y2.291
X2.218 Y1.787
X2.465 Y1.215
X2.626 Y0.612
X2.729 Y-0.004
X2.794 Y-0.624
X2.782 Y-0.936
X2.692 Y-1.234
X2.536 Y-1.505
X2.13 Y-1.978
X1.6 Y-2.307
X1.015 Y-2.524
X0.711 Y-2.594
X0.401 Y-2.634
X0.092 Y-2.59
X-0.194 Y-2.466
X-0.7 Y-2.102
X-1.056 Y-1.589
X-1.292 Y-1.011
X-1.368 Y-0.709
X-1.406 Y-0.399
X-1.354 Y-0.092
X-1.225 Y0.192
X-0.855 Y0.695
X-0.598 Y0.872
X-0.45 Y0.922
X-0.295 Y0.938
X0.015 Y0.901
X0.296 Y0.766
X0.54 Y0.572
X0.633 Y0.447
X0.665 Y0.375
G3 X1.234 Y0.484 I0.27 J0.131
G1 X1.239 Y0.55 Z4.208
X1.244 Y0.614 Z4.23
X1.248 Y0.67 Z4.265
X1.251 Y0.718 Z4.313
X1.254 Y0.753 Z4.37
X1.256 Y0.775 Z4.433
Y0.783 Z4.5
G0 Z22.8


T1 M6
M25 #625=4.2
G58 G90
M499
N16
;Purge nozzle
M14
;End of layer change block
;rapid-leaky
G0 X3.219 Y3.219 Z4.8 F6000
M15
G1 F2100 A0.225
M16
;bead-perimeter_inner
M15
G1 X-3.219 F717 A0.229
G1 Y-3.219 A0.234
G1 X3.219 A0.238
G1 Y3.219 A0.243
M16
;rapid-leaky
G0 X4.315 Y4.315 F6000
;bead-perimeter_outer
M15
G1 X-4.315 F717 A0.249
G1 Y-4.315 A0.255
G1 X4.315 A0.261
G1 Y4.315 A0.267
M16
;rapid-leaky
G0 X2.209 Y0.353 F6000
;bead-sparse_infill
M15
G1 X0.353 Y2.209 F717 A0.269
G1 X-1.584 A0.27
G1 X2.209 Y-1.584 A0.274
G1 Y-2.209 A0.275
G1 X0.896 A0.276
G1 X-2.209 Y0.896 A0.279
G1 Y-1.041 A0.28
G1 X-1.041 Y-2.209 A0.281
M16
G1 F2100
;Layer 9 of 11
;CERAMIC_LAYER_END
;Dry and Photo
M225 #620=60 #622=4.8
;record end of layer data
M111 #622=4.8
IF [[#1005 EQ 0] AND [#1006 EQ 0]] GOTO 18
IF [#1006 EQ 0] GOTO 17
(PLANARISING AT 4.20)
(T2  D=3. CR=0. - ZMIN=4.2 - FLAT END MILL)
G90 G94 G91.1 G40 G49 G17
G21

(DEFECT CORRECTION - 2D ADAPTIVE 2)
M5
T2 M6
S9300 M3
G0 X-5.309 Y-8.533
Z22.8
Z12.8
Z4.8
G1 Z4.5 F1339.
X-5.307 Y-8.526 Z4.433
X-5.302 Y-8.505 Z4.37
X-5.293 Y-8.47 Z4.313
X-5.281 Y-8.424 Z4.265
X-5.267 Y-8.369 Z4.23
X-5.251 Y-8.307 Z4.208
X-5.235 Y-8.243 Z4.2
G3 X-5. Y-6.61 I-7.419 J1.9
G1 Y-6.46
X-5.125 Y-5.848
X-5.198 Y-5.229
X-5.241 Y-4.606
X-5.266 Y-3.983
X-5.28 Y-3.359
X-5.289 Y-2.735
X-5.294 Y-2.111
X-5.296 Y-1.487
X-5.299 Y-0.239
X-5.3 Y3.66
X-5.265 Y3.812
X-5.131 Y4.094
X-4.925 Y4.328
X-4.434 Y4.714
X-3.858 Y4.953
X-3.251 Y5.097
X-2.633 Y5.182
X-2.011 Y5.232
X-1.387 Y5.261
X-0.764 Y5.277
X-0.14 Y5.287
X0.484 Y5.292
X1.108 Y5.296
X2.356 Y5.299
X3.604 Y5.3
X3.758 Y5.273
X4.046 Y5.153
X4.288 Y4.957
X4.688 Y4.478
X4.937 Y3.906
X5.088 Y3.3
X5.176 Y2.683
X5.228 Y2.061
X5.259 Y1.438
X5.276 Y0.814
X5.286 Y0.19
X5.292 Y-0.434
X5.295 Y-1.058
X5.298 Y-2.305
X5.3 Y-3.553
X5.289 Y-3.709
X5.245 Y-3.859
X5.094 Y-4.132
X4.668 Y-4.587
X4.114 Y-4.875
X3.515 Y-5.051
X2.9 Y-5.155
X2.279 Y-5.216
X1.656 Y-5.251
X1.033 Y-5.272
X0.409 Y-5.284
X-0.215 Y-5.291
X-0.839 Y-5.295
X-2.087 Y-5.298
X-2.399 Y-5.299
X-2.7 Y-5.216
X-2.96 Y-5.043
X-3.395 Y-4.596
X-3.674 Y-4.038
X-3.846 Y-3.438
X-3.949 Y-2.823
X-4.011 Y-2.202
X-4.048 Y-1.579
X-4.069 Y-0.956
X-4.082 Y-0.332
X-4.09 Y0.292
X-4.094 Y0.916
X-4.096 Y1.54
X-4.098 Y2.164
X-4.018 Y2.465
X-3.866 Y2.738
X-3.461 Y3.212
X-2.929 Y3.538
X-2.342 Y3.75
X-1.733 Y3.885
X-1.115 Y3.969
X-0.493 Y4.02
X0.13 Y4.052
X0.754 Y4.071
X1.378 Y4.083
X2.002 Y4.09
X2.312 Y4.053
X2.601 Y3.936
X2.857 Y3.758
X3.299 Y3.317
X3.596 Y2.769
X3.788 Y2.175
X3.909 Y1.563
X3.984 Y0.943
X4.03 Y0.321
X4.058 Y-0.302
X4.074 Y-0.926
X4.085 Y-1.55
X4.091 Y-2.174
X4.01 Y-2.475
X3.858 Y-2.747
X3.452 Y-3.222
X2.919 Y-3.545
X2.331 Y-3.755
X1.722 Y-3.888
X1.103 Y-3.971
X0.482 Y-4.022
X-0.142 Y-4.053
X-0.765 Y-4.072
X-1.076 Y-4.042
X-1.367 Y-3.931
X-1.627 Y-3.757
X-2.074 Y-3.323
X-2.378 Y-2.777
X-2.575 Y-2.185
X-2.699 Y-1.574
X-2.777 Y-0.955
X-2.825 Y-0.333
X-2.855 Y0.29
X-2.873 Y0.914
X-2.779 Y1.212
X-2.624 Y1.482
X-2.221 Y1.959
X-1.693 Y2.291
X-1.109 Y2.513
X-0.502 Y2.656
X0.115 Y2.748
X0.736 Y2.806
X1.045 Y2.76
X1.334 Y2.642
X1.849 Y2.291
X2.218 Y1.787
X2.465 Y1.215
X2.626 Y0.612
X2.729 Y-0.004
X2.794 Y-0.624
X2.782 Y-0.936
X2.692 Y-1.234
X2.536 Y-1.505
X2.13 Y-1.978
X1.6 Y-2.307
X1.015 Y-2.524
X0.711 Y-2.594
X0.401 Y-2.634
X0.092 Y-2.59
X-0.194 Y-2.466
X-0.7 Y-2.102
X-1.056 Y-1.589
X-1.292 Y-1.011
X-1.368 Y-0.709
X-1.406 Y-0.399
X-1.354 Y-0.092
X-1.225 Y0.192
X-0.855 Y0.695
X-0.598 Y0.872
X-0.45 Y0.922
X-0.295 Y0.938
X0.015 Y0.901
X0.296 Y0.766
X0.54 Y0.572
X0.633 Y0.447
X0.665 Y0.375
G3 X1.234 Y0.484 I0.27 J0.131
G1 X1.239 Y0.55 Z4.208
X1.244 Y0.614 Z4.23
X1.248 Y0.67 Z4.265
X1.251 Y0.718 Z4.313
X1.254 Y0.753 Z4.37
X1.256 Y0.775 Z4.433
Y0.783 Z4.5
G0 Z22.8


T1 M6
;Setting A to end of layer 7
G92 A0.225
GOTO 16
N17
(PLANARISING AT 4.80)
(T2  D=3. CR=0. - ZMIN=4.8 - FLAT END MILL)
G90 G94 G91.1 G40 G49 G17
G21

(DEFECT CORRECTION - 2D ADAPTIVE 2)
M5
T2 M6
S9300 M3
G0 X-5.309 Y-8.533
Z22.8
Z12.8
Z5.4
G1 Z5.1 F1339.
X-5.307 Y-8.526 Z5.033
X-5.302 Y-8.505 Z4.97
X-5.293 Y-8.47 Z4.913
X-5.281 Y-8.424 Z4.865
X-5.267 Y-8.369 Z4.83
X-5.251 Y-8.307 Z4.808
X-5.235 Y-8.243 Z4.8
G3 X-5. Y-6.61 I-7.419 J1.9
G1 Y-6.46
X-5.125 Y-5.848
X-5.198 Y-5.229
X-5.241 Y-4.606
X-5.266 Y-3.983
X-5.28 Y-3.359
X-5.289 Y-2.735
X-5.294 Y-2.111
X-5.296 Y-1.487
X-5.299 Y-0.239
X-5.3 Y3.66
X-5.265 Y3.812
X-5.131 Y4.094
X-4.925 Y4.328
X-4.434 Y4.714
X-3.858 Y4.953
X-3.251 Y5.097
X-2.633 Y5.182
X-2.011 Y5.232
X-1.387 Y5.261
X-0.764 Y5.277
X-0.14 Y5.287
X0.484 Y5.292
X1.108 Y5.296
X2.356 Y5.299
X3.604 Y5.3
X3.758 Y5.273
X4.046 Y5.153
X4.288 Y4.957
X4.688 Y4.478
X4.937 Y3.906
X5.088 Y3.3
X5.176 Y2.683
X5.228 Y2.061
X5.259 Y1.438
X5.276 Y0.814
X5.286 Y0.19
X5.292 Y-0.434
X5.295 Y-1.058
X5.298 Y-2.305
X5.3 Y-3.553
X5.289 Y-3.709
X5.245 Y-3.859
X5.094 Y-4.132
X4.668 Y-4.587
X4.114 Y-4.875
X3.515 Y-5.051
X2.9 Y-5.155
X2.279 Y-5.216
X1.656 Y-5.251
X1.033 Y-5.272
X0.409 Y-5.284
X-0.215 Y-5.291
X-0.839 Y-5.295
X-2.087 Y-5.298
X-2.399 Y-5.299
X-2.7 Y-5.216
X-2.96 Y-5.043
X-3.395 Y-4.596
X-3.674 Y-4.038
X-3.846 Y-3.438
X-3.949 Y-2.823
X-4.011 Y-2.202
X-4.048 Y-1.579
X-4.069 Y-0.956
X-4.082 Y-0.332
X-4.09 Y0.292
X-4.094 Y0.916
X-4.096 Y1.54
X-4.098 Y2.164
X-4.018 Y2.465
X-3.866 Y2.738
X-3.461 Y3.212
X-2.929 Y3.538
X-2.342 Y3.75
X-1.733 Y3.885
X-1.115 Y3.969
X-0.493 Y4.02
X0.13 Y4.052
X0.754 Y4.071
X1.378 Y4.083
X2.002 Y4.09
X2.312 Y4.053
X2.601 Y3.936
X2.857 Y3.758
X3.299 Y3.317
X3.596 Y2.769
X3.788 Y2.175
X3.909 Y1.563
X3.984 Y0.943
X4.03 Y0.321
X4.058 Y-0.302
X4.074 Y-0.926
X4.085 Y-1.55
X4.091 Y-2.174
X4.01 Y-2.475
X3.858 Y-2.747
X3.452 Y-3.222
X2.919 Y-3.545
X2.331 Y-3.755
X1.722 Y-3.888
X1.103 Y-3.971
X0.482 Y-4.022
X-0.142 Y-4.053
X-0.765 Y-4.072
X-1.076 Y-4.042
X-1.367 Y-3.931
X-1.627 Y-3.757
X-2.074 Y-3.323
X-2.378 Y-2.777
X-2.575 Y-2.185
X-2.699 Y-1.574
X-2.777 Y-0.955
X-2.825 Y-0.333
X-2.855 Y0.29
X-2.873 Y0.914
X-2.779 Y1.212
X-2.624 Y1.482
X-2.221 Y1.959
X-1.693 Y2.291
X-1.109 Y2.513
X-0.502 Y2.656
X0.115 Y2.748
X0.736 Y2.806
X1.045 Y2.76
X1.334 Y2.642
X1.849 Y2.291
X2.218 Y1.787
X2.465 Y1.215
X2.626 Y0.612
X2.729 Y-0.004
X2.794 Y-0.624
X2.782 Y-0.936
X2.692 Y-1.234
X2.536 Y-1.505
X2.13 Y-1.978
X1.6 Y-2.307
X1.015 Y-2.524
X0.711 Y-2.594
X0.401 Y-2.634
X0.092 Y-2.59
X-0.194 Y-2.466
X-0.7 Y-2.102
X-1.056 Y-1.589
X-1.292 Y-1.011
X-1.368 Y-0.709
X-1.406 Y-0.399
X-1.354 Y-0.092
X-1.225 Y0.192
X-0.855 Y0.695
X-0.598 Y0.872
X-0.45 Y0.922
X-0.295 Y0.938
X0.015 Y0.901
X0.296 Y0.766
X0.54 Y0.572
X0.633 Y0.447
X0.665 Y0.375
G3 X1.234 Y0.484 I0.27 J0.131
G1 X1.239 Y0.55 Z4.808
X1.244 Y0.614 Z4.83
X1.248 Y0.67 Z4.865
X1.251 Y0.718 Z4.913
X1.254 Y0.753 Z4.97
X1.256 Y0.775 Z5.033
Y0.783 Z5.1
G0 Z22.8


T1 M6
M25 #625=4.8
G58 G90
M499
N18
;Purge nozzle
M14
;End of layer change block
;rapid-leaky
G0 X3.219 Y-3.219 Z5.4 F6000
M15
G1 F2100 A0.281
M16
;bead-perimeter_inner
M15
G1 Y3.219 F717 A0.286
G1 X-3.219 A0.29
G1 Y-3.219 A0.295
G1 X3.219 A0.299
M16
;rapid-leaky
G0 X4.315 Y-4.315 F6000
;bead-perimeter_outer
M15
G1 Y4.315 F717 A0.305
G1 X-4.315 A0.311
G1 Y-4.315 A0.317
G1 X4.315 A0.323
M16
;rapid-leaky
G0 X0.353 Y-2.209 F6000
;bead-sparse_infill
M15
G1 X2.209 Y-0.353 F717 A0.325
G1 Y1.584 A0.327
G1 X-1.584 Y-2.209 A0.33
G1 X-2.209 A0.331
G1 Y-0.896 A0.332
G1 X0.896 Y2.209 A0.335
G1 X-1.041 A0.336
G1 X-2.209 Y1.041 A0.337
M16
G1 F2100
;Layer 10 of 11
;CERAMIC_LAYER_END
;Dry and Photo
M225 #620=60 #622=5.4
;record end of layer data
M111 #622=5.4
IF [[#1005 EQ 0] AND [#1006 EQ 0]] GOTO 20
IF [#1006 EQ 0] GOTO 19
(PLANARISING AT 4.80)
(T2  D=3. CR=0. - ZMIN=4.8 - FLAT END MILL)
G90 G94 G91.1 G40 G49 G17
G21

(DEFECT CORRECTION - 2D ADAPTIVE 2)
M5
T2 M6
S9300 M3
G0 X-5.309 Y-8.533
Z22.8
Z12.8
Z5.4
G1 Z5.1 F1339.
X-5.307 Y-8.526 Z5.033
X-5.302 Y-8.505 Z4.97
X-5.293 Y-8.47 Z4.913
X-5.281 Y-8.424 Z4.865
X-5.267 Y-8.369 Z4.83
X-5.251 Y-8.307 Z4.808
X-5.235 Y-8.243 Z4.8
G3 X-5. Y-6.61 I-7.419 J1.9
G1 Y-6.46
X-5.125 Y-5.848
X-5.198 Y-5.229
X-5.241 Y-4.606
X-5.266 Y-3.983
X-5.28 Y-3.359
X-5.289 Y-2.735
X-5.294 Y-2.111
X-5.296 Y-1.487
X-5.299 Y-0.239
X-5.3 Y3.66
X-5.265 Y3.812
X-5.131 Y4.094
X-4.925 Y4.328
X-4.434 Y4.714
X-3.858 Y4.953
X-3.251 Y5.097
X-2.633 Y5.182
X-2.011 Y5.232
X-1.387 Y5.261
X-0.764 Y5.277
X-0.14 Y5.287
X0.484 Y5.292
X1.108 Y5.296
X2.356 Y5.299
X3.604 Y5.3
X3.758 Y5.273
X4.046 Y5.153
X4.288 Y4.957
X4.688 Y4.478
X4.937 Y3.906
X5.088 Y3.3
X5.176 Y2.683
X5.228 Y2.061
X5.259 Y1.438
X5.276 Y0.814
X5.286 Y0.19
X5.292 Y-0.434
X5.295 Y-1.058
X5.298 Y-2.305
X5.3 Y-3.553
X5.289 Y-3.709
X5.245 Y-3.859
X5.094 Y-4.132
X4.668 Y-4.587
X4.114 Y-4.875
X3.515 Y-5.051
X2.9 Y-5.155
X2.279 Y-5.216
X1.656 Y-5.251
X1.033 Y-5.272
X0.409 Y-5.284
X-0.215 Y-5.291
X-0.839 Y-5.295
X-2.087 Y-5.298
X-2.399 Y-5.299
X-2.7 Y-5.216
X-2.96 Y-5.043
X-3.395 Y-4.596
X-3.674 Y-4.038
X-3.846 Y-3.438
X-3.949 Y-2.823
X-4.011 Y-2.202
X-4.048 Y-1.579
X-4.069 Y-0.956
X-4.082 Y-0.332
X-4.09 Y0.292
X-4.094 Y0.916
X-4.096 Y1.54
X-4.098 Y2.164
X-4.018 Y2.465
X-3.866 Y2.738
X-3.461 Y3.212
X-2.929 Y3.538
X-2.342 Y3.75
X-1.733 Y3.885
X-1.115 Y3.969
X-0.493 Y4.02
X0.13 Y4.052
X0.754 Y4.071
X1.378 Y4.083
X2.002 Y4.09
X2.312 Y4.053
X2.601 Y3.936
X2.857 Y3.758
X3.299 Y3.317
X3.596 Y2.769
X3.788 Y2.175
X3.909 Y1.563
X3.984 Y0.943
X4.03 Y0.321
X4.058 Y-0.302
X4.074 Y-0.926
X4.085 Y-1.55
X4.091 Y-2.174
X4.01 Y-2.475
X3.858 Y-2.747
X3.452 Y-3.222
X2.919 Y-3.545
X2.331 Y-3.755
X1.722 Y-3.888
X1.103 Y-3.971
X0.482 Y-4.022
X-0.142 Y-4.053
X-0.765 Y-4.072
X-1.076 Y-4.042
X-1.367 Y-3.931
X-1.627 Y-3.757
X-2.074 Y-3.323
X-2.378 Y-2.777
X-2.575 Y-2.185
X-2.699 Y-1.574
X-2.777 Y-0.955
X-2.825 Y-0.333
X-2.855 Y0.29
X-2.873 Y0.914
X-2.779 Y1.212
X-2.624 Y1.482
X-2.221 Y1.959
X-1.693 Y2.291
X-1.109 Y2.513
X-0.502 Y2.656
X0.115 Y2.748
X0.736 Y2.806
X1.045 Y2.76
X1.334 Y2.642
X1.849 Y2.291
X2.218 Y1.787
X2.465 Y1.215
X2.626 Y0.612
X2.729 Y-0.004
X2.794 Y-0.624
X2.782 Y-0.936
X2.692 Y-1.234
X2.536 Y-1.505
X2.13 Y-1.978
X1.6 Y-2.307
X1.015 Y-2.524
X0.711 Y-2.594
X0.401 Y-2.634
X0.092 Y-2.59
X-0.194 Y-2.466
X-0.7 Y-2.102
X-1.056 Y-1.589
X-1.292 Y-1.011
X-1.368 Y-0.709
X-1.406 Y-0.399
X-1.354 Y-0.092
X-1.225 Y0.192
X-0.855 Y0.695
X-0.598 Y0.872
X-0.45 Y0.922
X-0.295 Y0.938
X0.015 Y0.901
X0.296 Y0.766
X0.54 Y0.572
X0.633 Y0.447
X0.665 Y0.375
G3 X1.234 Y0.484 I0.27 J0.131
G1 X1.239 Y0.55 Z4.808
X1.244 Y0.614 Z4.83
X1.248 Y0.67 Z4.865
X1.251 Y0.718 Z4.913
X1.254 Y0.753 Z4.97
X1.256 Y0.775 Z5.033
Y0.783 Z5.1
G0 Z22.8


T1 M6
;Setting A to end of layer 8
G92 A0.281
GOTO 18
N19
(PLANARISING AT 5.40)
(T2  D=3. CR=0. - ZMIN=5.4 - FLAT END MILL)
G90 G94 G91.1 G40 G49 G17
G21

(DEFECT CORRECTION - 2D ADAPTIVE 2)
M5
T2 M6
S9300 M3
G0 X-5.309 Y-8.533
Z22.8
Z12.8
Z6.
G1 Z5.7 F1339.
X-5.307 Y-8.526 Z5.633
X-5.302 Y-8.505 Z5.57
X-5.293 Y-8.47 Z5.513
X-5.281 Y-8.424 Z5.465
X-5.267 Y-8.369 Z5.43
X-5.251 Y-8.307 Z5.408
X-5.235 Y-8.243 Z5.4
G3 X-5. Y-6.61 I-7.419 J1.9
G1 Y-6.46
X-5.125 Y-5.848
X-5.198 Y-5.229
X-5.241 Y-4.606
X-5.266 Y-3.983
X-5.28 Y-3.359
X-5.289 Y-2.735
X-5.294 Y-2.111
X-5.296 Y-1.487
X-5.299 Y-0.239
X-5.3 Y3.66
X-5.265 Y3.812
X-5.131 Y4.094
X-4.925 Y4.328
X-4.434 Y4.714
X-3.858 Y4.953
X-3.251 Y5.097
X-2.633 Y5.182
X-2.011 Y5.232
X-1.387 Y5.261
X-0.764 Y5.277
X-0.14 Y5.287
X0.484 Y5.292
X1.108 Y5.296
X2.356 Y5.299
X3.604 Y5.3
X3.758 Y5.273
X4.046 Y5.153
X4.288 Y4.957
X4.688 Y4.478
X4.937 Y3.906
X5.088 Y3.3
X5.176 Y2.683
X5.228 Y2.061
X5.259 Y1.438
X5.276 Y0.814
X5.286 Y0.19
X5.292 Y-0.434
X5.295 Y-1.058
X5.298 Y-2.305
X5.3 Y-3.553
X5.289 Y-3.709
X5.245 Y-3.859
X5.094 Y-4.132
X4.668 Y-4.587
X4.114 Y-4.875
X3.515 Y-5.051
X2.9 Y-5.155
X2.279 Y-5.216
X1.656 Y-5.251
X1.033 Y-5.272
X0.409 Y-5.284
X-0.215 Y-5.291
X-0.839 Y-5.295
X-2.087 Y-5.298
X-2.399 Y-5.299
X-2.7 Y-5.216
X-2.96 Y-5.043
X-3.395 Y-4.596
X-3.674 Y-4.038
X-3.846 Y-3.438
X-3.949 Y-2.823
X-4.011 Y-2.202
X-4.048 Y-1.579
X-4.069 Y-0.956
X-4.082 Y-0.332
X-4.09 Y0.292
X-4.094 Y0.916
X-4.096 Y1.54
X-4.098 Y2.164
X-4.018 Y2.465
X-3.866 Y2.738
X-3.461 Y3.212
X-2.929 Y3.538
X-2.342 Y3.75
X-1.733 Y3.885
X-1.115 Y3.969
X-0.493 Y4.02
X0.13 Y4.052
X0.754 Y4.071
X1.378 Y4.083
X2.002 Y4.09
X2.312 Y4.053
X2.601 Y3.936
X2.857 Y3.758
X3.299 Y3.317
X3.596 Y2.769
X3.788 Y2.175
X3.909 Y1.563
X3.984 Y0.943
X4.03 Y0.321
X4.058 Y-0.302
X4.074 Y-0.926
X4.085 Y-1.55
X4.091 Y-2.174
X4.01 Y-2.475
X3.858 Y-2.747
X3.452 Y-3.222
X2.919 Y-3.545
X2.331 Y-3.755
X1.722 Y-3.888
X1.103 Y-3.971
X0.482 Y-4.022
X-0.142 Y-4.053
X-0.765 Y-4.072
X-1.076 Y-4.042
X-1.367 Y-3.931
X-1.627 Y-3.757
X-2.074 Y-3.323
X-2.378 Y-2.777
X-2.575 Y-2.185
X-2.699 Y-1.574
X-2.777 Y-0.955
X-2.825 Y-0.333
X-2.855 Y0.29
X-2.873 Y0.914
X-2.779 Y1.212
X-2.624 Y1.482
X-2.221 Y1.959
X-1.693 Y2.291
X-1.109 Y2.513
X-0.502 Y2.656
X0.115 Y2.748
X0.736 Y2.806
X1.045 Y2.76
X1.334 Y2.642
X1.849 Y2.291
X2.218 Y1.787
X2.465 Y1.215
X2.626 Y0.612
X2.729 Y-0.004
X2.794 Y-0.624
X2.782 Y-0.936
X2.692 Y-1.234
X2.536 Y-1.505
X2.13 Y-1.978
X1.6 Y-2.307
X1.015 Y-2.524
X0.711 Y-2.594
X0.401 Y-2.634
X0.092 Y-2.59
X-0.194 Y-2.466
X-0.7 Y-2.102
X-1.056 Y-1.589
X-1.292 Y-1.011
X-1.368 Y-0.709
X-1.406 Y-0.399
X-1.354 Y-0.092
X-1.225 Y0.192
X-0.855 Y0.695
X-0.598 Y0.872
X-0.45 Y0.922
X-0.295 Y0.938
X0.015 Y0.901
X0.296 Y0.766
X0.54 Y0.572
X0.633 Y0.447
X0.665 Y0.375
G3 X1.234 Y0.484 I0.27 J0.131
G1 X1.239 Y0.55 Z5.408
X1.244 Y0.614 Z5.43
X1.248 Y0.67 Z5.465
X1.251 Y0.718 Z5.513
X1.254 Y0.753 Z5.57
X1.256 Y0.775 Z5.633
Y0.783 Z5.7
G0 Z22.8


T1 M6
M25 #625=5.4
G58 G90
M499
N20
;Purge nozzle
M14
;End of layer change block
;rapid-leaky
G0 X-3.219 Y-3.219 Z6 F6000
M15
G1 F2100 A0.337
M16
;bead-perimeter_inner
M15
G1 X3.219 F717 A0.342
G1 Y3.219 A0.346
G1 X-3.219 A0.351
G1 Y-3.219 A0.355
M16
;rapid-leaky
G0 X-4.315 Y-4.315 F6000
;bead-perimeter_outer
M15
G1 X4.315 F717 A0.362
G1 Y4.315 A0.368
G1 X-4.315 A0.374
G1 Y-4.315 A0.38
M16
;rapid-leaky
G0 X-1.041 Y-2.209 F6000
;bead-sparse_infill
M15
G1 X-2.209 Y-1.041 F717 A0.381
G1 Y0.896 A0.382
G1 X0.896 Y-2.209 A0.385
G1 X2.209 A0.386
G1 Y-1.584 A0.387
G1 X-1.584 Y2.209 A0.39
G1 X0.353 A0.392
G1 X2.209 Y0.353 A0.394
M16
G1 F2100
;Layer 11 of 11
;CERAMIC_LAYER_END
;Dry and Photo
M225 #620=60 #622=6
;record end of layer data
M111 #622=6
IF [[#1005 EQ 0] AND [#1006 EQ 0]] GOTO 22
IF [#1006 EQ 0] GOTO 21
(PLANARISING AT 5.40)
(T2  D=3. CR=0. - ZMIN=5.4 - FLAT END MILL)
G90 G94 G91.1 G40 G49 G17
G21

(DEFECT CORRECTION - 2D ADAPTIVE 2)
M5
T2 M6
S9300 M3
G0 X-5.309 Y-8.533
Z22.8
Z12.8
Z6.
G1 Z5.7 F1339.
X-5.307 Y-8.526 Z5.633
X-5.302 Y-8.505 Z5.57
X-5.293 Y-8.47 Z5.513
X-5.281 Y-8.424 Z5.465
X-5.267 Y-8.369 Z5.43
X-5.251 Y-8.307 Z5.408
X-5.235 Y-8.243 Z5.4
G3 X-5. Y-6.61 I-7.419 J1.9
G1 Y-6.46
X-5.125 Y-5.848
X-5.198 Y-5.229
X-5.241 Y-4.606
X-5.266 Y-3.983
X-5.28 Y-3.359
X-5.289 Y-2.735
X-5.294 Y-2.111
X-5.296 Y-1.487
X-5.299 Y-0.239
X-5.3 Y3.66
X-5.265 Y3.812
X-5.131 Y4.094
X-4.925 Y4.328
X-4.434 Y4.714
X-3.858 Y4.953
X-3.251 Y5.097
X-2.633 Y5.182
X-2.011 Y5.232
X-1.387 Y5.261
X-0.764 Y5.277
X-0.14 Y5.287
X0.484 Y5.292
X1.108 Y5.296
X2.356 Y5.299
X3.604 Y5.3
X3.758 Y5.273
X4.046 Y5.153
X4.288 Y4.957
X4.688 Y4.478
X4.937 Y3.906
X5.088 Y3.3
X5.176 Y2.683
X5.228 Y2.061
X5.259 Y1.438
X5.276 Y0.814
X5.286 Y0.19
X5.292 Y-0.434
X5.295 Y-1.058
X5.298 Y-2.305
X5.3 Y-3.553
X5.289 Y-3.709
X5.245 Y-3.859
X5.094 Y-4.132
X4.668 Y-4.587
X4.114 Y-4.875
X3.515 Y-5.051
X2.9 Y-5.155
X2.279 Y-5.216
X1.656 Y-5.251
X1.033 Y-5.272
X0.409 Y-5.284
X-0.215 Y-5.291
X-0.839 Y-5.295
X-2.087 Y-5.298
X-2.399 Y-5.299
X-2.7 Y-5.216
X-2.96 Y-5.043
X-3.395 Y-4.596
X-3.674 Y-4.038
X-3.846 Y-3.438
X-3.949 Y-2.823
X-4.011 Y-2.202
X-4.048 Y-1.579
X-4.069 Y-0.956
X-4.082 Y-0.332
X-4.09 Y0.292
X-4.094 Y0.916
X-4.096 Y1.54
X-4.098 Y2.164
X-4.018 Y2.465
X-3.866 Y2.738
X-3.461 Y3.212
X-2.929 Y3.538
X-2.342 Y3.75
X-1.733 Y3.885
X-1.115 Y3.969
X-0.493 Y4.02
X0.13 Y4.052
X0.754 Y4.071
X1.378 Y4.083
X2.002 Y4.09
X2.312 Y4.053
X2.601 Y3.936
X2.857 Y3.758
X3.299 Y3.317
X3.596 Y2.769
X3.788 Y2.175
X3.909 Y1.563
X3.984 Y0.943
X4.03 Y0.321
X4.058 Y-0.302
X4.074 Y-0.926
X4.085 Y-1.55
X4.091 Y-2.174
X4.01 Y-2.475
X3.858 Y-2.747
X3.452 Y-3.222
X2.919 Y-3.545
X2.331 Y-3.755
X1.722 Y-3.888
X1.103 Y-3.971
X0.482 Y-4.022
X-0.142 Y-4.053
X-0.765 Y-4.072
X-1.076 Y-4.042
X-1.367 Y-3.931
X-1.627 Y-3.757
X-2.074 Y-3.323
X-2.378 Y-2.777
X-2.575 Y-2.185
X-2.699 Y-1.574
X-2.777 Y-0.955
X-2.825 Y-0.333
X-2.855 Y0.29
X-2.873 Y0.914
X-2.779 Y1.212
X-2.624 Y1.482
X-2.221 Y1.959
X-1.693 Y2.291
X-1.109 Y2.513
X-0.502 Y2.656
X0.115 Y2.748
X0.736 Y2.806
X1.045 Y2.76
X1.334 Y2.642
X1.849 Y2.291
X2.218 Y1.787
X2.465 Y1.215
X2.626 Y0.612
X2.729 Y-0.004
X2.794 Y-0.624
X2.782 Y-0.936
X2.692 Y-1.234
X2.536 Y-1.505
X2.13 Y-1.978
X1.6 Y-2.307
X1.015 Y-2.524
X0.711 Y-2.594
X0.401 Y-2.634
X0.092 Y-2.59
X-0.194 Y-2.466
X-0.7 Y-2.102
X-1.056 Y-1.589
X-1.292 Y-1.011
X-1.368 Y-0.709
X-1.406 Y-0.399
X-1.354 Y-0.092
X-1.225 Y0.192
X-0.855 Y0.695
X-0.598 Y0.872
X-0.45 Y0.922
X-0.295 Y0.938
X0.015 Y0.901
X0.296 Y0.766
X0.54 Y0.572
X0.633 Y0.447
X0.665 Y0.375
G3 X1.234 Y0.484 I0.27 J0.131
G1 X1.239 Y0.55 Z5.408
X1.244 Y0.614 Z5.43
X1.248 Y0.67 Z5.465
X1.251 Y0.718 Z5.513
X1.254 Y0.753 Z5.57
X1.256 Y0.775 Z5.633
Y0.783 Z5.7
G0 Z22.8


T1 M6
;Setting A to end of layer 9
G92 A0.337
GOTO 20
N21
(PLANARISING AT 6.00)
(T2  D=3. CR=0. - ZMIN=6. - FLAT END MILL)
G90 G94 G91.1 G40 G49 G17
G21

(DEFECT CORRECTION - 2D ADAPTIVE 2)
M5
T2 M6
S9300 M3
G0 X-5.309 Y-8.533
Z22.8
Z12.8
Z6.6
G1 Z6.3 F1339.
X-5.307 Y-8.526 Z6.233
X-5.302 Y-8.505 Z6.17
X-5.293 Y-8.47 Z6.113
X-5.281 Y-8.424 Z6.065
X-5.267 Y-8.369 Z6.03
X-5.251 Y-8.307 Z6.008
X-5.235 Y-8.243 Z6.
G3 X-5. Y-6.61 I-7.419 J1.9
G1 Y-6.46
X-5.125 Y-5.848
X-5.198 Y-5.229
X-5.241 Y-4.606
X-5.266 Y-3.983
X-5.28 Y-3.359
X-5.289 Y-2.735
X-5.294 Y-2.111
X-5.296 Y-1.487
X-5.299 Y-0.239
X-5.3 Y3.66
X-5.265 Y3.812
X-5.131 Y4.094
X-4.925 Y4.328
X-4.434 Y4.714
X-3.858 Y4.953
X-3.251 Y5.097
X-2.633 Y5.182
X-2.011 Y5.232
X-1.387 Y5.261
X-0.764 Y5.277
X-0.14 Y5.287
X0.484 Y5.292
X1.108 Y5.296
X2.356 Y5.299
X3.604 Y5.3
X3.758 Y5.273
X4.046 Y5.153
X4.288 Y4.957
X4.688 Y4.478
X4.937 Y3.906
X5.088 Y3.3
X5.176 Y2.683
X5.228 Y2.061
X5.259 Y1.438
X5.276 Y0.814
X5.286 Y0.19
X5.292 Y-0.434
X5.295 Y-1.058
X5.298 Y-2.305
X5.3 Y-3.553
X5.289 Y-3.709
X5.245 Y-3.859
X5.094 Y-4.132
X4.668 Y-4.587
X4.114 Y-4.875
X3.515 Y-5.051
X2.9 Y-5.155
X2.279 Y-5.216
X1.656 Y-5.251
X1.033 Y-5.272
X0.409 Y-5.284
X-0.215 Y-5.291
X-0.839 Y-5.295
X-2.087 Y-5.298
X-2.399 Y-5.299
X-2.7 Y-5.216
X-2.96 Y-5.043
X-3.395 Y-4.596
X-3.674 Y-4.038
X-3.846 Y-3.438
X-3.949 Y-2.823
X-4.011 Y-2.202
X-4.048 Y-1.579
X-4.069 Y-0.956
X-4.082 Y-0.332
X-4.09 Y0.292
X-4.094 Y0.916
X-4.096 Y1.54
X-4.098 Y2.164
X-4.018 Y2.465
X-3.866 Y2.738
X-3.461 Y3.212
X-2.929 Y3.538
X-2.342 Y3.75
X-1.733 Y3.885
X-1.115 Y3.969
X-0.493 Y4.02
X0.13 Y4.052
X0.754 Y4.071
X1.378 Y4.083
X2.002 Y4.09
X2.312 Y4.053
X2.601 Y3.936
X2.857 Y3.758
X3.299 Y3.317
X3.596 Y2.769
X3.788 Y2.175
X3.909 Y1.563
X3.984 Y0.943
X4.03 Y0.321
X4.058 Y-0.302
X4.074 Y-0.926
X4.085 Y-1.55
X4.091 Y-2.174
X4.01 Y-2.475
X3.858 Y-2.747
X3.452 Y-3.222
X2.919 Y-3.545
X2.331 Y-3.755
X1.722 Y-3.888
X1.103 Y-3.971
X0.482 Y-4.022
X-0.142 Y-4.053
X-0.765 Y-4.072
X-1.076 Y-4.042
X-1.367 Y-3.931
X-1.627 Y-3.757
X-2.074 Y-3.323
X-2.378 Y-2.777
X-2.575 Y-2.185
X-2.699 Y-1.574
X-2.777 Y-0.955
X-2.825 Y-0.333
X-2.855 Y0.29
X-2.873 Y0.914
X-2.779 Y1.212
X-2.624 Y1.482
X-2.221 Y1.959
X-1.693 Y2.291
X-1.109 Y2.513
X-0.502 Y2.656
X0.115 Y2.748
X0.736 Y2.806
X1.045 Y2.76
X1.334 Y2.642
X1.849 Y2.291
X2.218 Y1.787
X2.465 Y1.215
X2.626 Y0.612
X2.729 Y-0.004
X2.794 Y-0.624
X2.782 Y-0.936
X2.692 Y-1.234
X2.536 Y-1.505
X2.13 Y-1.978
X1.6 Y-2.307
X1.015 Y-2.524
X0.711 Y-2.594
X0.401 Y-2.634
X0.092 Y-2.59
X-0.194 Y-2.466
X-0.7 Y-2.102
X-1.056 Y-1.589
X-1.292 Y-1.011
X-1.368 Y-0.709
X-1.406 Y-0.399
X-1.354 Y-0.092
X-1.225 Y0.192
X-0.855 Y0.695
X-0.598 Y0.872
X-0.45 Y0.922
X-0.295 Y0.938
X0.015 Y0.901
X0.296 Y0.766
X0.54 Y0.572
X0.633 Y0.447
X0.665 Y0.375
G3 X1.234 Y0.484 I0.27 J0.131
G1 X1.239 Y0.55 Z6.008
X1.244 Y0.614 Z6.03
X1.248 Y0.67 Z6.065
X1.251 Y0.718 Z6.113
X1.254 Y0.753 Z6.17
X1.256 Y0.775 Z6.233
Y0.783 Z6.3
G0 Z22.8


T1 M6
M25 #625=6
G58 G90
M499
N22
;Purge nozzle
M14
;End of layer change block
;rapid-leaky
G0 X3.219 Y-3.219 Z6.6 F6000
M15
G1 F2100 A0.394
M16
;bead-perimeter_inner
M15
G1 Y3.219 F717 A0.398
G1 X-3.219 A0.403
G1 Y-3.219 A0.407
G1 X3.219 A0.412
M16
;rapid-leaky
G0 X4.315 Y-4.315 F6000
;bead-perimeter_outer
M15
G1 Y4.315 F717 A0.418
G1 X-4.315 A0.424
G1 Y-4.315 A0.43
G1 X4.315 A0.436
M16
;rapid-leaky
G0 X0.353 Y-2.209 F6000
;bead-sparse_infill
M15
G1 X2.209 Y-0.353 F717 A0.438
G1 Y1.584 A0.439
G1 X-1.584 Y-2.209 A0.443
M16
G1 X-2.209
M15
G1 Y-0.896 A0.444
G1 X0.896 Y2.209 A0.447
G1 X-1.041 A0.449
G1 X-2.209 Y1.041 A0.45
M16
G1 F2100
;part 1 complete
;move to park position
;Ignoring parking!
;Extruder Change to 0
;Ignoring extruder change
;--------------------------------
;--------------------------------
;START OF THE END GCODE
;CERAMIC OFF
G58
G91
G1 Z20 F540
G90
;CERAMIC_LAYER_END
;Dry and Photo
M225 #620=60 #622=6.6
;record end of layer data
M111 #622=6.6
;Cancel return signal 
M499
IF [[#1005 EQ 0] AND [#1006 EQ 0]] GOTO 24
IF [#1006 EQ 0] GOTO 23
(PLANARISING AT 6.00)
(T2  D=3. CR=0. - ZMIN=6. - FLAT END MILL)
G90 G94 G91.1 G40 G49 G17
G21

(DEFECT CORRECTION - 2D ADAPTIVE 2)
M5
T2 M6
S9300 M3
G0 X-5.309 Y-8.533
Z22.8
Z12.8
Z6.6
G1 Z6.3 F1339.
X-5.307 Y-8.526 Z6.233
X-5.302 Y-8.505 Z6.17
X-5.293 Y-8.47 Z6.113
X-5.281 Y-8.424 Z6.065
X-5.267 Y-8.369 Z6.03
X-5.251 Y-8.307 Z6.008
X-5.235 Y-8.243 Z6.
G3 X-5. Y-6.61 I-7.419 J1.9
G1 Y-6.46
X-5.125 Y-5.848
X-5.198 Y-5.229
X-5.241 Y-4.606
X-5.266 Y-3.983
X-5.28 Y-3.359
X-5.289 Y-2.735
X-5.294 Y-2.111
X-5.296 Y-1.487
X-5.299 Y-0.239
X-5.3 Y3.66
X-5.265 Y3.812
X-5.131 Y4.094
X-4.925 Y4.328
X-4.434 Y4.714
X-3.858 Y4.953
X-3.251 Y5.097
X-2.633 Y5.182
X-2.011 Y5.232
X-1.387 Y5.261
X-0.764 Y5.277
X-0.14 Y5.287
X0.484 Y5.292
X1.108 Y5.296
X2.356 Y5.299
X3.604 Y5.3
X3.758 Y5.273
X4.046 Y5.153
X4.288 Y4.957
X4.688 Y4.478
X4.937 Y3.906
X5.088 Y3.3
X5.176 Y2.683
X5.228 Y2.061
X5.259 Y1.438
X5.276 Y0.814
X5.286 Y0.19
X5.292 Y-0.434
X5.295 Y-1.058
X5.298 Y-2.305
X5.3 Y-3.553
X5.289 Y-3.709
X5.245 Y-3.859
X5.094 Y-4.132
X4.668 Y-4.587
X4.114 Y-4.875
X3.515 Y-5.051
X2.9 Y-5.155
X2.279 Y-5.216
X1.656 Y-5.251
X1.033 Y-5.272
X0.409 Y-5.284
X-0.215 Y-5.291
X-0.839 Y-5.295
X-2.087 Y-5.298
X-2.399 Y-5.299
X-2.7 Y-5.216
X-2.96 Y-5.043
X-3.395 Y-4.596
X-3.674 Y-4.038
X-3.846 Y-3.438
X-3.949 Y-2.823
X-4.011 Y-2.202
X-4.048 Y-1.579
X-4.069 Y-0.956
X-4.082 Y-0.332
X-4.09 Y0.292
X-4.094 Y0.916
X-4.096 Y1.54
X-4.098 Y2.164
X-4.018 Y2.465
X-3.866 Y2.738
X-3.461 Y3.212
X-2.929 Y3.538
X-2.342 Y3.75
X-1.733 Y3.885
X-1.115 Y3.969
X-0.493 Y4.02
X0.13 Y4.052
X0.754 Y4.071
X1.378 Y4.083
X2.002 Y4.09
X2.312 Y4.053
X2.601 Y3.936
X2.857 Y3.758
X3.299 Y3.317
X3.596 Y2.769
X3.788 Y2.175
X3.909 Y1.563
X3.984 Y0.943
X4.03 Y0.321
X4.058 Y-0.302
X4.074 Y-0.926
X4.085 Y-1.55
X4.091 Y-2.174
X4.01 Y-2.475
X3.858 Y-2.747
X3.452 Y-3.222
X2.919 Y-3.545
X2.331 Y-3.755
X1.722 Y-3.888
X1.103 Y-3.971
X0.482 Y-4.022
X-0.142 Y-4.053
X-0.765 Y-4.072
X-1.076 Y-4.042
X-1.367 Y-3.931
X-1.627 Y-3.757
X-2.074 Y-3.323
X-2.378 Y-2.777
X-2.575 Y-2.185
X-2.699 Y-1.574
X-2.777 Y-0.955
X-2.825 Y-0.333
X-2.855 Y0.29
X-2.873 Y0.914
X-2.779 Y1.212
X-2.624 Y1.482
X-2.221 Y1.959
X-1.693 Y2.291
X-1.109 Y2.513
X-0.502 Y2.656
X0.115 Y2.748
X0.736 Y2.806
X1.045 Y2.76
X1.334 Y2.642
X1.849 Y2.291
X2.218 Y1.787
X2.465 Y1.215
X2.626 Y0.612
X2.729 Y-0.004
X2.794 Y-0.624
X2.782 Y-0.936
X2.692 Y-1.234
X2.536 Y-1.505
X2.13 Y-1.978
X1.6 Y-2.307
X1.015 Y-2.524
X0.711 Y-2.594
X0.401 Y-2.634
X0.092 Y-2.59
X-0.194 Y-2.466
X-0.7 Y-2.102
X-1.056 Y-1.589
X-1.292 Y-1.011
X-1.368 Y-0.709
X-1.406 Y-0.399
X-1.354 Y-0.092
X-1.225 Y0.192
X-0.855 Y0.695
X-0.598 Y0.872
X-0.45 Y0.922
X-0.295 Y0.938
X0.015 Y0.901
X0.296 Y0.766
X0.54 Y0.572
X0.633 Y0.447
X0.665 Y0.375
G3 X1.234 Y0.484 I0.27 J0.131
G1 X1.239 Y0.55 Z6.008
X1.244 Y0.614 Z6.03
X1.248 Y0.67 Z6.065
X1.251 Y0.718 Z6.113
X1.254 Y0.753 Z6.17
X1.256 Y0.775 Z6.233
Y0.783 Z6.3
G0 Z22.8


T1 M6
;Setting A to end of layer 10
G92 A0.394
GOTO 22
N23
G58 G90
M499
N24
(TMPFINISHING)
(T2  D=6. CR=0. - ZMIN=1.8 - FLAT END MILL)
G90 G94 G91.1 G40 G49 G17
G21

(2D ADAPTIVE2)
M5
T2 M6
(G54.1 P2)
S7958 M3
G0 X-5.619 Y-11.926
Z22.8
Z12.8
Z8.
G1 Z7.4 F1500.
X-5.617 Y-11.919 Z7.306
X-5.611 Y-11.898 Z7.215
X-5.602 Y-11.863 Z7.128
X-5.59 Y-11.815 Z7.047
X-5.575 Y-11.756 Z6.976
X-5.557 Y-11.687 Z6.915
X-5.537 Y-11.609 Z6.865
X-5.516 Y-11.525 Z6.829
X-5.493 Y-11.436 Z6.807
X-5.47 Y-11.345 Z6.8
G3 X-5. Y-8.079 I-14.839 J3.801
G1 Y-7.929
X-5.113 Y-7.05
X-5.194 Y-6.167
X-5.25 Y-5.283
X-5.29 Y-4.398
X-5.318 Y-3.512
X-5.337 Y-2.626
X-5.351 Y-1.74
X-5.361 Y-0.854
X-5.368 Y0.032
X-5.373 Y0.918
X-5.377 Y2.247
X-5.255 Y2.673
X-4.788 Y3.426
X-4.099 Y3.984
X-3.311 Y4.388
X-2.473 Y4.678
X-1.612 Y4.885
X-0.738 Y5.032
X0.142 Y5.136
X1.025 Y5.21
X1.91 Y5.261
X2.131 Y5.27
X2.351 Y5.245
X2.564 Y5.184
X2.966 Y4.998
X3.645 Y4.429
X4.143 Y3.696
X4.503 Y2.886
X4.76 Y2.038
X4.944 Y1.171
X5.074 Y0.295
X5.165 Y-0.587
X5.23 Y-1.471
X5.253 Y-1.913
X5.263 Y-2.134
X5.237 Y-2.354
X5.178 Y-2.568
X4.993 Y-2.97
X4.422 Y-3.648
X3.689 Y-4.146
X2.879 Y-4.505
X2.03 Y-4.762
X1.163 Y-4.944
X0.725 Y-5.009
X0.504 Y-5.023
X0.284 Y-5.002
X0.069 Y-4.946
X-0.337 Y-4.768
X-1.008 Y-4.189
X-1.503 Y-3.455
X-1.864 Y-2.645
X-2.124 Y-1.798
X-2.217 Y-1.365
X-2.256 Y-0.924
X-2.158 Y-0.491
X-1.776 Y0.308
X-1.465 Y0.624
X-1.379 Y0.694
X-1.204 Y0.83
X-1.023 Y0.957
X-0.824 Y1.055
X-0.612 Y1.119
X-0.393 Y1.15
X-0.171 Y1.146
X0.047 Y1.106
X0.256 Y1.033
X0.451 Y0.928
X0.539 Y0.861
G3 X1.269 Y0.887 I0.348 J0.489
G1 X1.341 Y0.947 Z6.807
X1.411 Y1.005 Z6.829
X1.479 Y1.06 Z6.865
X1.54 Y1.112 Z6.915
X1.596 Y1.157 Z6.976
X1.643 Y1.196 Z7.047
X1.681 Y1.227 Z7.128
X1.708 Y1.25 Z7.215
X1.725 Y1.264 Z7.306
X1.731 Y1.269 Z7.4
G0 Z22.8

(2D CONTOUR1)
G0 X0.6 Y-9.8
Z22.8
Z12.8
G1 Z8.8 F333.
Z2.4
G19 G3 Y-9.2 Z1.8 J0.6 K0. F1500.
G1 Y-8.6
G17 G3 X0. Y-8. I-0.6 J0.
G1 X-5.
G2 X-8. Y-5. I0. J3.
G1 Y5.
G2 X-5. Y8. I3. J0.
G1 X5.
G2 X8. Y5. I0. J-3.
G1 Y-5.
G2 X5. Y-8. I-3. J0.
G1 X0.
G3 X-0.6 Y-8.6 I0. J-0.6
G1 Y-9.2
G19 G2 Y-9.8 Z2.4 J0. K0.6
G0 Z22.8
G17


T1 M6
;Camera Photo
M25 #625=6.6
M65 P12
;Exit process monitoring script
M999
M30
;End of GCODE generated by Ceramic+polymer post processor except for a 
;percent sign that may be inserted in the next line
%
